;PYCAM-META-DATA: Filename: /home/dewy/Pictures/drawing.svg
;PYCAM-META-DATA: Timestamp: 2012-10-11 03:52:33.634030
;PYCAM-META-DATA: Version: 0.5.1
;Estimated machine time: 2 minutes
G40 (disable tool radius compensation)
G49 (disable tool length compensation)
G80 (cancel modal motion)
G54 (select coordinate system 1)
G90 (disable incremental moves)
G20 (imperial)
G61 (exact path mode)
F200.00000
S1000.00000
;PYCAM_TOOLPATH_SETTINGS: START
;[Bounds]
;maxz = 0.0
;maxx = 10.1562
;maxy = 7.71614
;minx = 0.784243
;miny = 0.675953
;minz = 0.0
;
;[Tool]
;torus_radius = 0.25
;speed = 1000.0
;shape = CylindricalCutter
;tool_radius = 0.005
;feedrate = 200.0
;
;[Process]
;engrave_offset = 0.0
;step_down = 1.0
;generator = EngraveCutter
;postprocessor = SimpleCutter
;overlap_percent = 0
;milling_style = conventional
;material_allowance = 0.0
;pocketing_type = none
;path_direction = x
;
;PYCAM_TOOLPATH_SETTINGS: END
T1 M6
G0 Z0.1000
 X8.5215 Y0.6760
G1 Z0.0000
 X8.5159 Y0.7155
 X8.5066 Y0.7518
 X8.4893 Y0.7880
 X8.4653 Y0.8220
 X8.4361 Y0.8515
 X8.4064 Y0.8688
 X8.3691 Y0.8739
 X8.3376 Y0.8770
 X8.3286 Y0.8876
 X8.3248 Y0.8981
 X8.3146 Y0.9007
 X8.2990 Y0.8954
 X8.2794 Y0.8824
 X8.2598 Y0.8697
 X8.2553 Y0.8778
 X8.2457 Y0.8893
 X8.2094 Y0.8923
 X8.1734 Y0.8952
 X8.1636 Y0.9061
 X8.1668 Y0.9218
 X8.1752 Y0.9401
 X8.1869 Y0.9580
 X8.2003 Y0.9721
 X8.2089 Y0.9816
 X8.1980 Y0.9837
 X8.1866 Y0.9812
 X8.1820 Y0.9748
 X8.1779 Y0.9684
 X8.1682 Y0.9657
 X8.1585 Y0.9630
 X8.1545 Y0.9565
 X8.1462 Y0.9498
 X8.1274 Y0.9475
 X8.1074 Y0.9497
 X8.0951 Y0.9562
 X8.0973 Y0.9638
 X8.1106 Y0.9696
 X8.1499 Y0.9780
 X8.1483 Y0.9797
 X8.1305 Y0.9811
 X8.0994 Y0.9823
 X8.0582 Y0.9830
 X8.0131 Y0.9840
 X7.9718 Y0.9862
 X7.9387 Y0.9892
 X7.9185 Y0.9926
 X7.8975 Y0.9965
 X7.8888 Y0.9940
 X7.8672 Y0.9887
 X7.8155 Y0.9859
 X7.7797 Y0.9861
 X7.7572 Y0.9878
 X7.7455 Y0.9917
 X7.7422 Y0.9980
 X7.7362 Y1.0045
 X7.7134 Y1.0080
 X7.6666 Y1.0090
 X7.5887 Y1.0078
 X7.4399 Y1.0083
 X7.2979 Y1.0138
 X7.2063 Y1.0176
 X7.1387 Y1.0152
 X7.0968 Y1.0069
 X7.0825 Y0.9928
 X7.0717 Y0.9867
 X7.0459 Y0.9840
 X7.0200 Y0.9813
 X7.0092 Y0.9748
 X6.9983 Y0.9684
 X6.9721 Y0.9657
 X6.9471 Y0.9678
 X6.9394 Y0.9730
 X6.9359 Y0.9932
 X6.9252 Y1.0014
 X6.9068 Y0.9962
 X6.8677 Y0.9789
 X6.8411 Y0.9712
 X6.8185 Y0.9720
 X6.7910 Y0.9798
 X6.7504 Y0.9956
 X6.6898 Y1.0226
 X6.6093 Y1.0606
 X6.5090 Y1.1097
 X6.4809 Y1.1246
 X6.4526 Y1.1416
 X6.4275 Y1.1584
 X6.4088 Y1.1731
 X6.3817 Y1.1951
 X6.3659 Y1.2043
 X6.3545 Y1.2097
 X6.3383 Y1.2227
 X6.3182 Y1.2356
 X6.2975 Y1.2410
 X6.2829 Y1.2435
 X6.2768 Y1.2493
 X6.2797 Y1.2562
 X6.2923 Y1.2618
 X6.2929 Y1.2648
 X6.2717 Y1.2664
 X6.2376 Y1.2676
 X6.1719 Y1.2703
 X6.0840 Y1.2742
 X5.9834 Y1.2788
 X5.8473 Y1.2841
 X5.7298 Y1.2858
 X5.6107 Y1.2841
 X5.4703 Y1.2789
 X5.3666 Y1.2741
 X5.2777 Y1.2697
 X5.2128 Y1.2662
 X5.1815 Y1.2639
 X5.1581 Y1.2618
 X5.1149 Y1.2585
 X5.0581 Y1.2546
 X4.9936 Y1.2504
 X4.8535 Y1.2408
 X4.7417 Y1.2316
 X4.7011 Y1.2279
 X4.6582 Y1.2241
 X4.6181 Y1.2208
 X4.5859 Y1.2183
 X4.5229 Y1.2128
 X4.4786 Y1.2069
 X4.4525 Y1.2003
 X4.4440 Y1.1929
 X4.4339 Y1.1877
 X4.4066 Y1.1896
 X4.3816 Y1.1916
 X4.3739 Y1.1882
 X4.3726 Y1.1826
 X4.3631 Y1.1795
 X4.3347 Y1.1759
 X4.2882 Y1.1687
 X4.2434 Y1.1640
 X4.2256 Y1.1679
 X4.2182 Y1.1745
 X4.2054 Y1.1765
 X4.1919 Y1.1743
 X4.1828 Y1.1676
 X4.1837 Y1.1607
 X4.1937 Y1.1571
 X4.1906 Y1.1542
 X4.1599 Y1.1490
 X4.1088 Y1.1457
 X4.0569 Y1.1470
 X4.0169 Y1.1482
 X4.0042 Y1.1413
 X3.9995 Y1.1338
 X3.9882 Y1.1302
 X3.9783 Y1.1283
 X3.9904 Y1.1217
 X4.0017 Y1.1150
 X3.9843 Y1.1132
 X3.9628 Y1.1111
 X3.9454 Y1.1069
 X3.9345 Y1.1067
 X3.9309 Y1.1167
 X3.9350 Y1.1273
 X3.9492 Y1.1263
 X3.9623 Y1.1248
 X3.9619 Y1.1349
 X3.9463 Y1.1482
 X3.9186 Y1.1270
 X3.9062 Y1.1159
 X3.8923 Y1.1090
 X3.8738 Y1.1054
 X3.8480 Y1.1041
 X3.7630 Y1.1022
 X3.7055 Y1.0989
 X3.6705 Y1.0937
 X3.6529 Y1.0861
 X3.6412 Y1.0791
 X3.6377 Y1.0845
 X3.6315 Y1.0900
 X3.6175 Y1.0892
 X3.6025 Y1.0836
 X3.5934 Y1.0746
 X3.5774 Y1.0666
 X3.5682 Y1.0640
 X3.5644 Y1.0575
 X3.5577 Y1.0510
 X3.5415 Y1.0483
 X3.5253 Y1.0510
 X3.5186 Y1.0575
 X3.5145 Y1.0640
 X3.5049 Y1.0666
 X3.4951 Y1.0640
 X3.4911 Y1.0575
 X3.4801 Y1.0510
 X3.4538 Y1.0483
 X3.4335 Y1.0480
 X3.4243 Y1.0460
 X3.4244 Y1.0413
 X3.4321 Y1.0326
 X3.4416 Y1.0196
 X3.4363 Y1.0131
 X3.4262 Y1.0138
 X3.4180 Y1.0206
 X3.4091 Y1.0242
 X3.3961 Y1.0104
 X3.3754 Y0.9921
 X3.3468 Y0.9782
 X3.3124 Y0.9676
 X3.3537 Y0.9664
 X3.3822 Y0.9635
 X3.3805 Y0.9567
 X3.3540 Y0.9528
 X3.3073 Y0.9565
 X3.2617 Y0.9604
 X3.2397 Y0.9561
 X3.2249 Y0.9499
 X3.2017 Y0.9473
 X3.1783 Y0.9433
 X3.1668 Y0.9335
 X3.1685 Y0.9213
 X3.1850 Y0.9103
 X3.2041 Y0.9040
 X3.2176 Y0.9014
 X3.2236 Y0.8967
 X3.2235 Y0.8860
 X3.2184 Y0.8743
 X3.2094 Y0.8670
 X3.2013 Y0.8686
 X3.1980 Y0.8777
 X3.1968 Y0.8880
 X3.1922 Y0.8913
 X3.1823 Y0.8877
 X3.1652 Y0.8771
 X3.1492 Y0.8696
 X3.1264 Y0.8658
 X3.0903 Y0.8651
 X3.0346 Y0.8670
 X2.9356 Y0.8686
 X2.8517 Y0.8643
 X2.7908 Y0.8548
 X2.7610 Y0.8409
 X2.7451 Y0.8300
 X2.7173 Y0.8307
 X2.6944 Y0.8319
 X2.6849 Y0.8274
 X2.6908 Y0.8239
 X2.7071 Y0.8207
 X2.7311 Y0.8183
 X2.7605 Y0.8168
 X2.8544 Y0.8142
 X2.9100 Y0.8118
 X2.9402 Y0.8090
 X2.9575 Y0.8050
 X2.9726 Y0.8028
 X2.9781 Y0.8085
 X2.9820 Y0.8166
 X2.9911 Y0.8185
 X3.0013 Y0.8148
 X3.0086 Y0.8058
 X3.0087 Y0.7953
 X3.0020 Y0.7884
 X2.9889 Y0.7864
 X2.9669 Y0.7861
 X2.9392 Y0.7871
 X2.9092 Y0.7892
 X2.8801 Y0.7922
 X2.8553 Y0.7956
 X2.8379 Y0.7993
 X2.8315 Y0.8028
 X2.8215 Y0.8064
 X2.7927 Y0.8085
 X2.7466 Y0.8091
 X2.6849 Y0.8081
 X2.6172 Y0.8070
 X2.5718 Y0.8076
 X2.5462 Y0.8102
 X2.5383 Y0.8148
 X2.5234 Y0.8236
 X2.4845 Y0.8307
 X2.4304 Y0.8351
 X2.3697 Y0.8356
 X2.3435 Y0.8346
 X2.3324 Y0.8336
 X2.3357 Y0.8323
 X2.3527 Y0.8305
 X2.3803 Y0.8261
 X2.3917 Y0.8206
 X2.4125 Y0.8169
 X2.4627 Y0.8172
 X2.5133
 X2.5246 Y0.8111
 X2.5091 Y0.8046
 X2.4763 Y0.7987
 X2.4252 Y0.7932
 X2.3551 Y0.7882
 X2.3056 Y0.7836
 X2.2704 Y0.7777
 X2.2568 Y0.7748
 X2.2492 Y0.7758
 X2.2458 Y0.7820
 X2.2451 Y0.7942
 X2.2498 Y0.8132
 X2.2657 Y0.8215
 X2.2737 Y0.8248
 X2.2550 Y0.8267
 X2.2345 Y0.8260
 X2.2293 Y0.8224
 X2.2283 Y0.8092
 X2.2181 Y0.7853
 X2.2075 Y0.7578
 X2.2059 Y0.7358
 X2.2054 Y0.7217
 X2.1913 Y0.7178
 X2.1775 Y0.7205
 X2.1718 Y0.7267
 X2.1677 Y0.7315
 X2.1581 Y0.7304
 X2.1447 Y0.7170
 X2.1570 Y0.7087
 X2.1674 Y0.7033
 X2.1745 Y0.6903
 X2.1750 Y0.6844
 X2.1697 Y0.6798
 X2.1536 Y0.6766
 X2.1442 Y0.6760
G0 Z0.1000
 X1.4132
G1 Z0.0000
 X1.3146 Y0.6787
 X1.2694 Y0.6821
 X1.2438 Y0.6861
 X1.1942 Y0.6906
 X1.1280 Y0.6951
 X1.0522 Y0.6990
 X0.9752 Y0.7031
 X0.9117 Y0.7079
 X0.8669 Y0.7129
 X0.8460 Y0.7176
 X0.8356 Y0.7253
 X0.8495 Y0.7225
 X0.8652 Y0.7215
 X0.8752 Y0.7266
 X0.8664 Y0.7337
 X0.8302 Y0.7362
 X0.7931 Y0.7389
 X0.7842 Y0.7436
 Y0.7490
 X0.7905 Y0.7526
 X0.8228 Y0.7521
 X0.8485 Y0.7504
 X0.8492 Y0.7520
 X0.8357 Y0.7601
 X0.8275 Y0.7738
 X0.8179 Y0.7879
 X0.8014 Y0.7969
 X0.7842 Y0.8012
G0 Z0.1000
 X3.2346 Y0.8102
G1 Z0.0000
 X3.2447 Y0.8164
 X3.2689 Y0.8189
 X3.2999 Y0.8205
 X3.3262 Y0.8242
 X3.3418 Y0.8264
 X3.3338 Y0.8193
 X3.3098 Y0.8109
 X3.2766 Y0.8058
 X3.2472 Y0.8052
 X3.2346 Y0.8102
G0 Z0.1000
 X3.2737 Y0.8886
G1 Z0.0000
 X3.2913 Y0.8893
 X3.2952 Y0.8856
 X3.2858 Y0.8838
 X3.2750 Y0.8849
 X3.2737 Y0.8886
G0 Z0.1000
 X3.3446 Y0.9014
G1 Z0.0000
 X3.3561 Y0.9101
 X3.3812 Y0.9014
 X3.3868 Y0.8944
 X3.3697 Y0.8924
 X3.3519 Y0.8950
 X3.3446 Y0.9014
G0 Z0.1000
 X3.4911 Y1.0247
G1 Z0.0000
 X3.4988 Y1.0358
 X3.5255 Y1.0388
 X3.5443 Y1.0371
 X3.5481 Y1.0327
 X3.5372 Y1.0257
 X3.5117 Y1.0166
 X3.4957 Y1.0149
 X3.4911 Y1.0247
G0 Z0.1000
 X3.0514 Y2.2960
G1 Z0.0000
 X3.0569 Y2.3044
 X3.0708 Y2.3103
 X3.0887 Y2.3127
 X3.1063 Y2.3103
 X3.1219 Y2.3026
 X3.1233 Y2.2952
 X3.1115 Y2.2896
 X3.0880 Y2.2874
 X3.0621 Y2.2899
 X3.0514 Y2.2960
G0 Z0.1000
 X3.0264 Y2.4398
G1 Z0.0000
 X3.0439 Y2.4405
 X3.0478 Y2.4368
 X3.0384 Y2.4349
 X3.0276 Y2.4361
 X3.0264 Y2.4398
G0 Z0.1000
 X2.6116 Y2.4067
G1 Z0.0000
 X2.6156 Y2.4158
 X2.6253 Y2.4067
 X2.6213 Y2.3975
 X2.6116 Y2.4067
G0 Z0.1000
 X2.4400 Y2.9170
G1 Z0.0000
 X2.4576 Y2.9178
 X2.4615 Y2.9141
 X2.4520 Y2.9122
 X2.4413 Y2.9134
 X2.4400 Y2.9170
G0 Z0.1000
 X2.0735 Y2.5132
G1 Z0.0000
 X2.0911 Y2.5139
 X2.0951 Y2.5103
 X2.0856 Y2.5084
 X2.0748 Y2.5095
 X2.0735 Y2.5132
G0 Z0.1000
 X1.9270 Y2.7243
G1 Z0.0000
 X1.9445 Y2.7250
 X1.9485 Y2.7214
 X1.9390 Y2.7195
 X1.9282 Y2.7207
 X1.9270 Y2.7243
G0 Z0.1000
 X1.7204 Y2.6829
G1 Z0.0000
 X1.7105 Y2.6921
 X1.7095 Y2.7010
 X1.7235 Y2.7088
 X1.7347 Y2.6913
 X1.7377 Y2.6784
 X1.7381 Y2.6732
 X1.7323 Y2.6762
 X1.7204 Y2.6829
G0 Z0.1000
 X1.5672 Y2.6913
G1 Z0.0000
 X1.5763 Y2.7004
 X1.5855 Y2.6913
 X1.5763 Y2.6821
 X1.5672 Y2.6913
G0 Z0.1000
 X1.5781 Y2.5854
G1 Z0.0000
 X1.5729 Y2.6035
 X1.5767 Y2.6134
 X1.5829 Y2.6114
 X1.5855 Y2.5989
 X1.5881 Y2.5847
 X1.5994 Y2.5904
 X1.6174 Y2.5972
 X1.6168 Y2.5778
 X1.5987 Y2.5636
 X1.5781 Y2.5854
G0 Z0.1000
 X1.4389 Y2.5948
G1 Z0.0000
 X1.4471 Y2.6055
 X1.4748 Y2.6086
 X1.5011 Y2.6118
 X1.5142 Y2.6193
 X1.5215 Y2.6277
 X1.5332 Y2.6320
 X1.5440 Y2.6316
 X1.5488 Y2.6253
 X1.5428 Y2.6138
 X1.5282 Y2.5989
 X1.5034 Y2.5864
 X1.4739 Y2.5812
 X1.4492 Y2.5839
 X1.4389 Y2.5948
G0 Z0.1000
 X0.7842 Y2.1239
G1 Z0.0000
 X0.7853 Y2.1458
 X0.7924 Y2.1988
 X0.8034 Y2.2293
 X0.8193 Y2.2480
 X0.8409 Y2.2657
 X0.8631 Y2.2885
 X0.8681 Y2.3023
 X0.8604 Y2.3037
 X0.8522 Y2.2963
 X0.8438 Y2.2891
 X0.8488 Y2.3094
 X0.8570 Y2.3188
 X0.8728 Y2.3139
 X0.8966 Y2.3114
 X0.9092 Y2.3378
 X0.9159 Y2.3504
 X0.9276 Y2.3537
 X0.9417 Y2.3594
 X0.9547 Y2.3790
 X0.9650 Y2.3985
 X0.9724 Y2.4067
 X0.9841 Y2.4135
 X1.0046 Y2.4297
 X1.0266 Y2.4447
 X1.0422 Y2.4485
 X1.0516 Y2.4509
 X1.0589 Y2.4623
 X1.0649 Y2.4739
 X1.0715 Y2.4761
 X1.0849 Y2.4784
 X1.1076 Y2.4897
 X1.1334 Y2.5014
 X1.1601 Y2.5070
 X1.1827 Y2.5062
 X1.1961 Y2.4985
 X1.2101 Y2.4896
 X1.2190 Y2.4971
 X1.2102 Y2.5055
 X1.1892 Y2.5145
 X1.1595 Y2.5241
 X1.1870 Y2.5258
 X1.2030 Y2.5284
 Y2.5321
 X1.1949 Y2.5392
 X1.1915 Y2.5497
 X1.1954 Y2.5589
 X1.2044 Y2.5624
 X1.2143 Y2.5602
 X1.2211 Y2.5518
 X1.2292 Y2.5493
 X1.2455 Y2.5618
 X1.2671 Y2.5769
 X1.2908 Y2.5759
 X1.3154 Y2.5712
 X1.3404 Y2.5693
 X1.3582 Y2.5671
 X1.3656 Y2.5615
 X1.3548 Y2.5559
 X1.3289 Y2.5535
 X1.3031 Y2.5509
 X1.2923 Y2.5444
 X1.3031 Y2.5379
 X1.3289 Y2.5352
 X1.3510 Y2.5332
 X1.3638 Y2.5280
 X1.3656 Y2.5213
 X1.3543 Y2.5146
 X1.3558 Y2.5116
 X1.3757 Y2.5096
 X1.3932 Y2.5100
 X1.4052 Y2.5138
 X1.4143 Y2.5226
 X1.4231 Y2.5378
 X1.4377 Y2.5673
 X1.4383 Y2.5379
 X1.4389 Y2.5085
 X1.4614 Y2.5310
 X1.4747 Y2.5423
 X1.4891 Y2.5492
 X1.5079 Y2.5526
 X1.5339 Y2.5535
 X1.5719 Y2.5506
 X1.5881 Y2.5420
 X1.5953 Y2.5352
 X1.6117 Y2.5420
 X1.6294 Y2.5502
 X1.6449 Y2.5535
 X1.6553 Y2.5497
 X1.6584 Y2.5406
 X1.6544 Y2.5301
 X1.6435 Y2.5221
 X1.6337 Y2.5152
 X1.6393 Y2.5051
 X1.6493 Y2.4989
 X1.6568 Y2.5043
 X1.6816 Y2.5136
 X1.7321 Y2.5212
 X1.7884 Y2.5296
 X1.8274 Y2.5406
 X1.8643 Y2.5531
 X1.8786 Y2.5456
 X1.8974 Y2.5381
 X1.9426 Y2.5312
 X1.9893 Y2.5242
 X2.0118 Y2.5163
 X2.0220 Y2.5102
 X2.0390 Y2.5076
 X2.0562 Y2.5047
 X2.0669 Y2.4977
 X2.0764 Y2.4920
 X2.0904 Y2.4922
 X2.1044 Y2.4926
 X2.1137 Y2.4870
 X2.1213 Y2.4844
 X2.1320 Y2.4943
 X2.1445 Y2.5064
 X2.1578 Y2.4933
 X2.1695 Y2.4807
 X2.1716 Y2.4962
 X2.1764 Y2.5123
 X2.1924 Y2.5167
 X2.2061 Y2.5149
 X2.1997 Y2.5080
 X2.1943 Y2.4992
 X2.2132 Y2.4893
 X2.2343 Y2.4838
 X2.2433 Y2.4886
 X2.2555 Y2.4905
 X2.2825 Y2.4798
 X2.3184 Y2.4614
 Y2.4814
 X2.3199 Y2.4936
 X2.3235 Y2.4959
 X2.3278 Y2.4891
 X2.3314 Y2.4741
 X2.3377 Y2.4610
 X2.3490 Y2.4546
 X2.3612 Y2.4559
 X2.3699 Y2.4657
 X2.3786 Y2.4759
 X2.3920 Y2.4801
 X2.4043 Y2.4752
 X2.4009 Y2.4526
 X2.3970 Y2.4374
 X2.3973 Y2.4299
 X2.4032 Y2.4282
 X2.4155 Y2.4307
 X2.4467 Y2.4364
 X2.4862 Y2.4356
 X2.5028 Y2.4320
 X2.5062 Y2.4250
 X2.5078 Y2.4186
 X2.5194 Y2.4158
 X2.5328 Y2.4132
 X2.5383 Y2.4067
 X2.5443 Y2.4001
 X2.5589 Y2.3970
 X2.5888 Y2.3915
 X2.6213 Y2.3796
 X2.6449 Y2.3665
 X2.6477 Y2.3575
 X2.6507 Y2.3548
 X2.6766 Y2.3566
 X2.7113 Y2.3574
 X2.7293 Y2.3487
 X2.7490 Y2.3398
 X2.7880 Y2.3390
 X2.8206 Y2.3396
 X2.8131 Y2.3340
 X2.7995 Y2.3281
 X2.8008 Y2.3243
 X2.8192 Y2.3220
 X2.8567 Y2.3206
 X2.8906 Y2.3222
 X2.9047 Y2.3274
 X2.9108 Y2.3311
 X2.9254 Y2.3287
 X2.9473 Y2.3232
 X2.9712 Y2.3196
 X2.9917 Y2.3175
 X3.0055 Y2.3160
 X3.0120 Y2.3101
 X3.0147 Y2.2971
 X3.0156 Y2.2865
 X3.0196 Y2.2783
 X3.0284 Y2.2720
 X3.0435 Y2.2675
 X3.0666 Y2.2643
 X3.0996 Y2.2620
 X3.1439 Y2.2604
 X3.2013 Y2.2591
 X3.2540 Y2.2561
 X3.2966 Y2.2500
 X3.3250 Y2.2415
 X3.3354 Y2.2316
 X3.3517 Y2.2283
 X3.3973 Y2.2358
 X3.4118 Y2.2368
 X3.4179 Y2.2325
 X3.4268 Y2.2221
 X3.4473 Y2.2066
 X3.4700 Y2.1925
 X3.4853 Y2.1864
 X3.4894 Y2.1908
 X3.4911 Y2.2013
 X3.4938 Y2.2106
 X3.5026 Y2.2075
 X3.5171 Y2.1996
 X3.5379 Y2.1919
 X3.5627 Y2.1851
 X3.5890 Y2.1794
 X3.6144 Y2.1753
 X3.6364 Y2.1735
 X3.6528 Y2.1742
 X3.6610 Y2.1778
 X3.6798 Y2.1860
 X3.7037 Y2.1741
 X3.7331 Y2.1639
 X3.7891 Y2.1567
 X3.8398 Y2.1510
 X3.8791 Y2.1423
 X3.9028 Y2.1318
 X3.9072 Y2.1208
 X3.9077 Y2.1153
 X3.9158 Y2.1130
 X3.9263 Y2.1159
 X3.9327 Y2.1228
 X3.9494 Y2.1272
 X3.9952 Y2.1195
 X4.0560 Y2.1108
 X4.1187 Y2.1084
 X4.1593 Y2.1086
 X4.1668 Y2.1064
 X4.1506 Y2.0994
 X4.1533 Y2.0928
 X4.1721 Y2.0879
 X4.2040 Y2.0865
 X4.2427 Y2.0858
 X4.2725 Y2.0821
 X4.2903 Y2.0760
 X4.2934 Y2.0681
 X4.2983 Y2.0644
 X4.3162 Y2.0652
 X4.3352 Y2.0704
 X4.3431 Y2.0773
 X4.3472 Y2.0831
 X4.3569 Y2.0854
 X4.3666 Y2.0832
 X4.3707 Y2.0778
 X4.3854 Y2.0667
 X4.4227 Y2.0565
 X4.4723 Y2.0495
 X4.5241 Y2.0476
 X4.5669 Y2.0462
 X4.5891 Y2.0408
 X4.5868 Y2.0339
 X4.5562 Y2.0277
 X4.5488 Y2.0266
 X4.5543 Y2.0264
 X4.5712 Y2.0270
 X4.5981 Y2.0283
 X4.6493 Y2.0286
 X4.6882 Y2.0236
 X4.7108 Y2.0143
 X4.7134 Y2.0015
 X4.7139 Y1.9960
 X4.7221 Y1.9936
 X4.7326 Y1.9966
 X4.7390 Y2.0038
 X4.7589 Y2.0099
 X4.8153 Y2.0068
 X4.8645 Y2.0001
 X4.8654 Y1.9939
 X4.8502 Y1.9874
 X4.8563 Y1.9828
 X4.8772 Y1.9813
 X4.9068 Y1.9845
 X4.9279 Y1.9898
 X4.9272 Y1.9926
 X4.9158 Y1.9960
 X4.9112 Y2.0028
 X4.9230 Y2.0118
 X4.9422 Y2.0054
 X4.9616 Y1.9956
 X4.9915 Y1.9878
 X5.0195 Y1.9847
 X5.0335 Y1.9883
 X5.0392 Y1.9931
 X5.0493 Y1.9868
 X5.0641 Y1.9787
 X5.0825 Y1.9753
 X5.0974 Y1.9726
 X5.1036 Y1.9661
 X5.1150 Y1.9587
 X5.1402 Y1.9569
 X5.1655 Y1.9603
 X5.1772 Y1.9684
 X5.1807 Y1.9724
 X5.1897 Y1.9638
 X5.2027 Y1.9533
 X5.2192 Y1.9484
 X5.2349 Y1.9494
 X5.2456 Y1.9569
 X5.2587 Y1.9634
 X5.2823 Y1.9661
 X5.3058 Y1.9634
 X5.3189 Y1.9569
 X5.3300 Y1.9500
 X5.3470 Y1.9480
 X5.3625 Y1.9507
 X5.3693 Y1.9580
 X5.3769 Y1.9640
 X5.3991 Y1.9621
 X5.4682 Y1.9504
 X5.5493 Y1.9402
 X5.6227 Y1.9334
 X5.6690 Y1.9325
 X5.6979 Y1.9334
 X5.7133 Y1.9305
 X5.7298 Y1.9261
 X5.7617 Y1.9232
 X5.7932 Y1.9214
 X5.8091 Y1.9194
 X5.8190 Y1.9174
 X5.8365 Y1.9155
 X5.8570 Y1.9124
 X5.8743 Y1.9072
 X5.8890 Y1.9066
 X5.9034 Y1.9151
 X5.9270 Y1.9258
 X5.9710 Y1.9285
 X6.0067 Y1.9263
 X6.0015 Y1.9208
 X5.9786 Y1.9142
 X6.0060 Y1.9079
 X6.0375 Y1.9060
 X6.0748 Y1.9100
 X6.0987 Y1.9161
 X6.0984 Y1.9192
 X6.0875 Y1.9214
 X6.0858 Y1.9251
 X6.1009 Y1.9260
 X6.1305 Y1.9211
 X6.1635 Y1.9167
 X6.1821 Y1.9218
 X6.1965 Y1.9258
 X6.2174 Y1.9160
 X6.2384 Y1.9067
 X6.2557 Y1.9061
 X6.2681 Y1.9066
 X6.2775 Y1.8999
 X6.2866 Y1.8939
 X6.3008 Y1.9041
 X6.3099 Y1.9162
 X6.3052 Y1.9203
 X6.2986 Y1.9230
 X6.2992 Y1.9294
 X6.3102 Y1.9365
 X6.3269 Y1.9383
 X6.3432 Y1.9351
 X6.3529 Y1.9271
 X6.3595 Y1.9219
 X6.3707 Y1.9317
 X6.3826 Y1.9430
 X6.3936 Y1.9472
 X6.4015 Y1.9443
 X6.4046 Y1.9340
 X6.4112 Y1.9210
 X6.4334 Y1.9352
 X6.4589 Y1.9468
 X6.5005 Y1.9520
 X6.5380 Y1.9551
 X6.5572 Y1.9600
 X6.5661 Y1.9603
 X6.5787 Y1.9523
 X6.6067 Y1.9413
 X6.6573 Y1.9352
 X6.7096 Y1.9299
 X6.7464 Y1.9215
 X6.7683 Y1.9141
 X6.7848 Y1.9110
 X6.8027 Y1.9026
 X6.8146 Y1.8948
 X6.8359 Y1.8879
 X6.8628 Y1.8798
 X6.8885 Y1.8689
 X6.9142 Y1.8599
 X6.9418 Y1.8560
 X6.9641 Y1.8521
 X6.9759 Y1.8422
 X6.9941 Y1.8288
 X7.0119 Y1.8399
 X7.0196 Y1.8464
 X7.0375 Y1.8385
 X7.0667 Y1.8299
 X7.1075 Y1.8273
 X7.1451 Y1.8257
 X7.1558 Y1.8161
 X7.1680 Y1.8035
 X7.1993 Y1.7911
 X7.2335 Y1.7792
 X7.2546 Y1.7674
 X7.2721 Y1.7574
 X7.2978 Y1.7498
 X7.3231 Y1.7419
 X7.3399 Y1.7311
 X7.3564 Y1.7221
 X7.3814 Y1.7183
 X7.4033 Y1.7156
 X7.4124 Y1.7091
 X7.4187 Y1.7026
 X7.4341 Y1.6999
 X7.4528 Y1.6959
 X7.4673 Y1.6861
 X7.4840 Y1.6756
 X7.5050 Y1.6721
 X7.5217 Y1.6756
 X7.5256 Y1.6861
 Y1.6963
 X7.5348 Y1.6999
 X7.5440 Y1.7036
 X7.5438 Y1.7140
 X7.5354 Y1.7228
 X7.5220
 X7.5087 Y1.7217
 X7.5000 Y1.7265
 X7.4873 Y1.7375
 X7.4653 Y1.7498
 X7.4416 Y1.7600
 X7.4237 Y1.7642
 X7.4142 Y1.7725
 X7.4164 Y1.8055
 X7.4185 Y1.8329
 X7.4144 Y1.8453
 X7.4042 Y1.8428
 X7.3878 Y1.8255
 X7.3776 Y1.8136
 X7.3686 Y1.8090
 X7.3562 Y1.8113
 X7.3358 Y1.8198
 X7.3133 Y1.8326
 X7.3129 Y1.8404
 X7.3155 Y1.8441
 X7.3040 Y1.8461
 X7.2883 Y1.8490
 X7.2977 Y1.8618
 X7.3139 Y1.8719
 X7.3342 Y1.8653
 X7.3523 Y1.8591
 X7.3657 Y1.8600
 X7.3727 Y1.8616
 X7.3757 Y1.8565
 X7.3797 Y1.8497
 X7.3895 Y1.8468
 X7.4014 Y1.8497
 X7.4025 Y1.8564
 X7.3943 Y1.8641
 X7.3780 Y1.8702
 X7.3530 Y1.8779
 X7.3284 Y1.8888
 X7.3083 Y1.8969
 X7.3002 Y1.8905
 X7.2901 Y1.8900
 X7.2690 Y1.9090
 X7.2445 Y1.9313
 X7.2240 Y1.9426
 X7.1985 Y1.9503
 X7.1674 Y1.9628
 X7.1383 Y1.9767
 X7.1192 Y1.9887
 X7.0953 Y2.0018
 X7.0573 Y2.0171
 X7.0233 Y2.0312
 X7.0092 Y2.0413
 X7.0053 Y2.0466
 X6.9958 Y2.0487
 X6.9835 Y2.0540
 X6.9728 Y2.0667
 X6.9559 Y2.0838
 X6.9290 Y2.0997
 X6.8980 Y2.1139
 X6.8690 Y2.1286
 X6.8454 Y2.1418
 X6.8306 Y2.1519
 X6.8187 Y2.1614
 X6.8031 Y2.1735
 X6.7918 Y2.1854
 X6.7962 Y2.1923
 X6.8043 Y2.1996
 X6.8077 Y2.2103
 X6.8024 Y2.2191
 X6.7848 Y2.2177
 X6.7683 Y2.2163
 X6.7619 Y2.2215
 X6.7677 Y2.2311
 X6.7816 Y2.2370
 X6.7982 Y2.2379
 X6.8119 Y2.2326
 X6.8223 Y2.2276
 X6.8295 Y2.2306
 X6.8290 Y2.2396
 X6.8200 Y2.2514
 X6.8040 Y2.2645
 X6.7825 Y2.2774
 X6.7686 Y2.2869
 X6.7625 Y2.2961
 X6.7647 Y2.3030
 X6.7756 Y2.3057
 X6.7853 Y2.3031
 X6.7894 Y2.2966
 X6.8001 Y2.2901
 X6.8260 Y2.2874
 X6.8519 Y2.2900
 X6.8627 Y2.2963
 X6.8701 Y2.3070
 X6.8893 Y2.3187
 X6.9154 Y2.3293
 X6.9434 Y2.3362
 X6.9679 Y2.3423
 X6.9845 Y2.3501
 X7.0017 Y2.3564
 X7.0276 Y2.3587
 X7.0730 Y2.3622
 X7.0964 Y2.3773
 X7.1097 Y2.3861
 X7.1285 Y2.3907
 X7.1479 Y2.3951
 X7.1627 Y2.4033
 X7.1937 Y2.4116
 X7.2607 Y2.4146
 X7.2958 Y2.4155
 X7.3273 Y2.4176
 X7.3516 Y2.4207
 X7.3655 Y2.4245
 X7.3823 Y2.4298
 X7.3972 Y2.4289
 X7.4125 Y2.4282
 X7.4300 Y2.4339
 X7.4454 Y2.4392
 X7.4490 Y2.4287
 X7.4510 Y2.4209
 X7.4594 Y2.4173
 X7.4780 Y2.4175
 X7.5108 Y2.4211
 X7.5723 Y2.4273
 X7.6200 Y2.4283
 X7.6565 Y2.4241
 X7.6842 Y2.4144
 X7.7045 Y2.4071
 X7.7198 Y2.4077
 X7.7296 Y2.4160
 X7.7330 Y2.4318
 X7.7380 Y2.4365
 X7.7531 Y2.4254
 X7.7754 Y2.4122
 X7.8012 Y2.4066
 X7.8524 Y2.3994
 X7.8753 Y2.3782
 X7.8826 Y2.3671
 X7.8933 Y2.3612
 X7.9029 Y2.3618
 X7.9071 Y2.3700
 X7.8979 Y2.3792
 X7.8888 Y2.3897
 X7.8934 Y2.3933
 X7.9055 Y2.3851
 X7.9219 Y2.3745
 X7.9376 Y2.3700
 X7.9484 Y2.3679
 X7.9529 Y2.3631
 X7.9625 Y2.3576
 X7.9856 Y2.3539
 X8.0071 Y2.3546
 X8.0131 Y2.3598
 X8.0133 Y2.3671
 X8.0211 Y2.3731
 X8.0315 Y2.3735
 X8.0382 Y2.3672
 X8.0439 Y2.3610
 X8.0544 Y2.3677
 X8.0747 Y2.3758
 X8.1066 Y2.3792
 X8.1277 Y2.3796
 X8.1379 Y2.3815
 X8.1388 Y2.3858
 X8.1322 Y2.3936
 X8.1187 Y2.4123
 X8.1362 Y2.4112
 X8.1462 Y2.4086
 X8.1494 Y2.4110
 X8.1454 Y2.4207
 X8.1343 Y2.4405
 X8.1178 Y2.4668
 X8.1067 Y2.4807
 X8.0983 Y2.4979
 X8.0885 Y2.5318
 X8.0776 Y2.5779
 X8.0038 Y2.5742
 X7.9303 Y2.5651
 X7.8575 Y2.5482
 X7.8290 Y2.5399
 X7.8051 Y2.5337
 X7.7882 Y2.5302
 X7.7810 Y2.5300
 X7.7838 Y2.5389
 X7.7962 Y2.5547
 X7.8098 Y2.5659
 X7.8155 Y2.5639
 X7.8183 Y2.5576
 X7.8252 Y2.5585
 X7.8280 Y2.5663
 X7.8183 Y2.5771
 X7.8079 Y2.5878
 X7.8258 Y2.5900
 X7.8461 Y2.5942
 X7.8613 Y2.6040
 X7.8742 Y2.6138
 X7.8894 Y2.6178
 X7.9026 Y2.6202
 X7.9110 Y2.6259
 X7.9087 Y2.6338
 X7.8957 Y2.6392
 X7.8789 Y2.6404
 X7.8655 Y2.6359
 X7.8355 Y2.6214
 X7.7752 Y2.5970
 X7.7040 Y2.5702
 X7.6414 Y2.5485
 X7.6089 Y2.5398
 X7.5827 Y2.5359
 X7.5653 Y2.5368
 X7.5590 Y2.5430
 X7.5731 Y2.5535
 X7.6069 Y2.5661
 X7.6471 Y2.5767
 X7.6806 Y2.5811
 X7.6987 Y2.5829
 X7.7028 Y2.5869
 X7.7147 Y2.5989
 X7.7517 Y2.6194
 X7.7936 Y2.6441
 X7.8063 Y2.6641
 X7.8012 Y2.6779
 X7.7840 Y2.6820
 X7.7671 Y2.6843
 X7.7573 Y2.6901
 X7.7561 Y2.6972
 X7.7651 Y2.7037
 X7.7748 Y2.7103
 X7.7788 Y2.7185
 X7.7763 Y2.7268
 X7.7699 Y2.7271
 X7.7612 Y2.7199
 X7.7520 Y2.7061
 X7.7387 Y2.6907
 X7.7221 Y2.6890
 X7.7112 Y2.6943
 X7.7147 Y2.7004
 X7.7179 Y2.7079
 X7.7028 Y2.7125
 X7.6744 Y2.7135
 X7.6376 Y2.7104
 X7.6128 Y2.7076
 X7.5985 Y2.7075
 X7.5927 Y2.7106
 X7.5933 Y2.7169
 X7.5928 Y2.7259
 X7.5764 Y2.7225
 X7.5550 Y2.7172
 X7.5346 Y2.7146
 X7.5218 Y2.7125
 X7.5188 Y2.7079
 X7.5123 Y2.6953
 X7.5073 Y2.6885
 X7.5144 Y2.6806
 X7.5139 Y2.6761
 X7.4902 Y2.6784
 X7.4634 Y2.6852
 X7.4505 Y2.6925
 X7.4442 Y2.6981
 X7.4334 Y2.7004
 X7.4243 Y2.6978
 X7.4301 Y2.6874
 X7.4332 Y2.6809
 X7.4270 Y2.6777
 X7.4085 Y2.6772
 X7.3751 Y2.6792
 X7.3259 Y2.6806
 X7.3156 Y2.6737
 X7.3140 Y2.6691
 X7.3016 Y2.6660
 X7.2777 Y2.6643
 X7.2412 Y2.6639
 X7.1779 Y2.6641
 X7.1390 Y2.6640
 X7.1182 Y2.6598
 X7.0984 Y2.6502
 X7.0808 Y2.6420
 X7.0673 Y2.6467
 X7.0541 Y2.6517
 X7.0391 Y2.6493
 X7.0224 Y2.6438
 X7.0047 Y2.6406
 X6.9634 Y2.6376
 X6.9478 Y2.6345
 X6.9543 Y2.6270
 X6.9610 Y2.6199
 X6.9469 Y2.6179
 X6.9330 Y2.6206
 X6.9320 Y2.6280
 X6.9312 Y2.6324
 X6.9214 Y2.6344
 X6.9015 Y2.6341
 X6.8707 Y2.6316
 X6.8219 Y2.6242
 X6.7997 Y2.6157
 X6.7892 Y2.6180
 X6.7814 Y2.6224
 X6.7717 Y2.6099
 X6.7664 Y2.5955
 X6.7705 Y2.5903
 X6.7754 Y2.5863
 X6.7744 Y2.5766
 X6.7767 Y2.5641
 X6.7941 Y2.5535
 X6.8124 Y2.5421
 X6.8141 Y2.5258
 X6.8130 Y2.5161
 X6.8179 Y2.5105
 X6.8315 Y2.5077
 X6.8567 Y2.5065
 X6.9039 Y2.5054
 X6.8627 Y2.4980
 X6.8168 Y2.4926
 X6.7645 Y2.4900
 X6.7352 Y2.4889
 X6.7164 Y2.4859
 X6.7049 Y2.4802
 X6.6976 Y2.4707
 X6.6880 Y2.4591
 X6.6791 Y2.4574
 X6.6650 Y2.4592
 X6.6504 Y2.4497
 X6.6370 Y2.4306
 X6.6269 Y2.4039
 X6.6152 Y2.3709
 X6.6026 Y2.3494
 X6.5924 Y2.3337
 X6.5864 Y2.3141
 X6.5824 Y2.2998
 X6.5773 Y2.2966
 X6.5681 Y2.2954
 X6.5544 Y2.2861
 X6.5175 Y2.2659
 X6.4590 Y2.2449
 X6.3967 Y2.2283
 X6.3478 Y2.2217
 X6.3167 Y2.2199
 X6.3038 Y2.2149
 X6.2891 Y2.2063
 X6.2538 Y2.1957
 X6.2191 Y2.1843
 X6.2057 Y2.1736
 X6.1999 Y2.1671
 X6.1824 Y2.1661
 X6.1646 Y2.1652
 X6.1572 Y2.1592
 X6.1525 Y2.1525
 X6.1412 Y2.1495
 X6.1311 Y2.1478
 X6.1374 Y2.1416
 X6.1407 Y2.1389
 X6.1400 Y2.1363
 X6.1334 Y2.1337
 X6.1190 Y2.1306
 X6.0949 Y2.1269
 X6.0594 Y2.1220
 X6.0105 Y2.1158
 X5.9465 Y2.1078
 X5.8850 Y2.1020
 X5.8142 Y2.0990
 X5.7259 Y2.0986
 X5.6121 Y2.1008
 X5.5195 Y2.1031
 X5.4368 Y2.1050
 X5.3730 Y2.1062
 X5.3372 Y2.1067
 X5.3017 Y2.1080
 X5.2446 Y2.1117
 X5.1730 Y2.1171
 X5.0938 Y2.1236
 X5.0137 Y2.1308
 X4.9397 Y2.1379
 X4.8788 Y2.1444
 X4.8379 Y2.1496
 X4.7824 Y2.1574
 X4.7325 Y2.1632
 X4.5299 Y2.1836
 X4.3731 Y2.2017
 X4.2323 Y2.2212
 X4.0775 Y2.2459
 X4.0599 Y2.2486
 X4.0290 Y2.2529
 X3.9891 Y2.2584
 X3.9447 Y2.2643
 X3.9001 Y2.2707
 X3.8603 Y2.2770
 X3.8293 Y2.2827
 X3.8118 Y2.2869
 X3.7956 Y2.2913
 X3.7687 Y2.2971
 X3.7346 Y2.3038
 X3.6973 Y2.3104
 X3.5193 Y2.3432
 X3.2987 Y2.3891
 X3.2450 Y2.4007
 X3.1968 Y2.4109
 X3.1596 Y2.4186
 X3.1384 Y2.4228
 X3.1176 Y2.4281
 X3.1063 Y2.4340
 X3.0987 Y2.4380
 X3.0815 Y2.4442
 X3.0573 Y2.4517
 X3.0285 Y2.4596
 X2.9619 Y2.4775
 X2.9048 Y2.4935
 X2.8178 Y2.5179
 X2.7302 Y2.5411
 X2.6582 Y2.5590
 X2.6176 Y2.5675
 X2.5913 Y2.5725
 X2.5665 Y2.5798
 X2.4974 Y2.5989
 X2.3963 Y2.6180
 X2.3440 Y2.6285
 X2.2862 Y2.6433
 X2.2339 Y2.6593
 X2.1981 Y2.6733
 X2.1704 Y2.6804
 X2.1248 Y2.6866
 X2.0760 Y2.6920
 X2.0454 Y2.6971
 X2.0297 Y2.7027
 X2.0252 Y2.7098
 X2.0340 Y2.7163
 X2.0550 Y2.7193
 X2.0771 Y2.7211
 X2.0635 Y2.7285
 X2.0467 Y2.7404
 Y2.7547
 X2.0627 Y2.7696
 X2.0936 Y2.7838
 X2.1212 Y2.7955
 X2.1395 Y2.8072
 X2.1453 Y2.8161
 X2.1354 Y2.8197
 X2.1297 Y2.8224
 X2.1306 Y2.8289
 X2.1415 Y2.8375
 X2.1552 Y2.8381
 X2.1668 Y2.8318
 X2.1718 Y2.8197
 X2.1750 Y2.8060
 X2.1841 Y2.8025
 X2.1991 Y2.8092
 X2.2195 Y2.8261
 X2.2376 Y2.8402
 X2.2451 Y2.8396
 X2.2508 Y2.8329
 X2.2670 Y2.8340
 X2.2873 Y2.8337
 X2.3037 Y2.8184
 X2.3184 Y2.7973
 Y2.8185
 X2.3193 Y2.8300
 X2.3240 Y2.8356
 X2.3350 Y2.8364
 X2.3551 Y2.8335
 X2.3842 Y2.8313
 X2.3917 Y2.8408
 X2.3977 Y2.8523
 X2.4123 Y2.8608
 X2.4329 Y2.8672
 X2.4100 Y2.8753
 X2.4043 Y2.8801
 X2.4356 Y2.8782
 X2.4625 Y2.8760
 X2.4798 Y2.8777
 X2.4924 Y2.8843
 X2.5050 Y2.8972
 X2.5244 Y2.9139
 X2.5413 Y2.9154
 X2.5574 Y2.9145
 X2.5713 Y2.9209
 X2.5782 Y2.9308
 X2.5731 Y2.9404
 X2.5756 Y2.9459
 X2.6024 Y2.9478
 X2.6245 Y2.9474
 X2.6346 Y2.9456
 Y2.9416
 X2.6260 Y2.9343
 X2.6153 Y2.9231
 X2.6143 Y2.9149
 X2.6220 Y2.9135
 X2.6320 Y2.9185
 X2.6531 Y2.9273
 X2.6876 Y2.9347
 X2.7172 Y2.9408
 X2.7266 Y2.9462
 X2.7254 Y2.9549
 X2.7336 Y2.9646
 X2.7478 Y2.9725
 X2.7643 Y2.9758
 X2.7906 Y2.9813
 X2.8229 Y2.9944
 X2.8690 Y3.0097
 X2.9322 Y3.0187
 X2.9826 Y3.0244
 X3.0018 Y3.0299
 Y3.0399
 X3.0063 Y3.0561
 X3.0159 Y3.0688
 X3.0301 Y3.0761
 X3.0440 Y3.0766
 X3.0529 Y3.0690
 X3.0663 Y3.0635
 X3.0907 Y3.0654
 X3.1141 Y3.0726
 X3.1247 Y3.0827
 X3.1312 Y3.0918
 X3.1552 Y3.0902
 X3.1869 Y3.0898
 X3.2205 Y3.0990
 X3.2538 Y3.1092
 X3.2854 Y3.1134
 X3.3297 Y3.1195
 X3.3446 Y3.1374
 X3.3539 Y3.1473
 X3.3835 Y3.1507
 X3.4198 Y3.1533
 X3.4573 Y3.1586
 X3.4818 Y3.1642
 X3.4791 Y3.1675
 X3.4690 Y3.1708
 X3.4679 Y3.1772
 X3.4871 Y3.1823
 X3.5257 Y3.1821
 X3.5639 Y3.1817
 X3.5896 Y3.1861
 X3.5999 Y3.1942
 X3.5919 Y3.2051
 X3.5788 Y3.2104
 X3.5667 Y3.2100
 X3.5587 Y3.2097
 X3.5553 Y3.2147
 X3.5674 Y3.2210
 X3.5965 Y3.2236
 X3.6288 Y3.2205
 X3.6377 Y3.2090
 X3.6413 Y3.1981
 X3.6492 Y3.1988
 X3.6574 Y3.2086
 X3.6616 Y3.2244
 X3.6631 Y3.2486
 X3.6657 Y3.2622
 X3.6705 Y3.2682
 X3.6785 Y3.2695
 X3.6906 Y3.2648
 X3.7011 Y3.2534
 X3.7088 Y3.2448
 X3.7107 Y3.2626
 X3.7153 Y3.2830
 X3.7342 Y3.2879
 X3.7522 Y3.2921
 X3.7630 Y3.3024
 X3.7771 Y3.3132
 X3.8152 Y3.3139
 X3.8399 Y3.3129
 X3.8543 Y3.3145
 X3.8614 Y3.3196
 X3.8643 Y3.3291
 X3.8652 Y3.3429
 X3.8582 Y3.3291
 X3.8512 Y3.3223
 X3.8491 Y3.3498
 X3.8506 Y3.3737
 X3.8555 Y3.3869
 X3.8624 Y3.3879
 X3.8701 Y3.3751
 X3.8874 Y3.3623
 X3.9142 Y3.3842
 X3.9307 Y3.4004
 X3.9450 Y3.4072
 X3.9568 Y3.4126
 X3.9676 Y3.4255
 X3.9788 Y3.4393
 X3.9908 Y3.4434
 X4.0004 Y3.4380
 X4.0045 Y3.4232
 X4.0048 Y3.4026
 X4.0229 Y3.4243
 X4.0375 Y3.4458
 X4.0399 Y3.4604
 X4.0296 Y3.4689
 X4.0065 Y3.4716
 X3.9781 Y3.4746
 X3.9584 Y3.4814
 X3.9531 Y3.4883
 X3.9715 Y3.4869
 X3.9941 Y3.4866
 X4.0167 Y3.4915
 X4.0339 Y3.4998
 X4.0408 Y3.5099
 X4.0330 Y3.5202
 X4.0062 Y3.5209
 X3.9549 Y3.5111
 X3.8739 Y3.4903
 X3.8181 Y3.4754
 X3.7696 Y3.4625
 X3.7337 Y3.4532
 X3.7156 Y3.4487
 X3.6838 Y3.4419
 X3.6331 Y3.4308
 X3.5766 Y3.4205
 X3.5321 Y3.4168
 X3.5019 Y3.4199
 X3.4880 Y3.4296
 X3.4741 Y3.4407
 X3.4481 Y3.4486
 X3.4173 Y3.4556
 X3.3933 Y3.4646
 X3.3776 Y3.4750
 X3.3720 Y3.4860
 X3.3636 Y3.4960
 X3.3432 Y3.5038
 X3.3131 Y3.5125
 X3.2814 Y3.5245
 X3.2506 Y3.5339
 X3.2231 Y3.5365
 X3.2025 Y3.5390
 X3.1980 Y3.5579
 X3.1966 Y3.5724
 X3.1889 Y3.5803
 X3.1700 Y3.5839
 X3.1347 Y3.5854
 X3.1132 Y3.5889
 X3.1009 Y3.5963
 X3.0999 Y3.6049
 X3.1127 Y3.6119
 X3.1139 Y3.6152
 X3.0937 Y3.6172
 X3.0590 Y3.6239
 X3.0256 Y3.6384
 X3.0045 Y3.6496
 X2.9994 Y3.6483
 X3.0007 Y3.6393
 X2.9939 Y3.6347
 X2.9827 Y3.6352
 X2.9715 Y3.6419
 X2.9526 Y3.6518
 X2.9233 Y3.6596
 X2.8979 Y3.6660
 X2.8826 Y3.6736
 X2.8807 Y3.6799
 X2.8951 Y3.6825
 X2.9084 Y3.6857
 X2.9140 Y3.6932
 X2.9079 Y3.6979
 X2.8908 Y3.7011
 X2.8767 Y3.7057
 X2.8579 Y3.7022
 X2.8424 Y3.6989
 X2.8236 Y3.7016
 X2.7952 Y3.7117
 X2.7513 Y3.7312
 X2.7363 Y3.7438
 X2.7307 Y3.7611
 X2.7259 Y3.7788
 X2.7143 Y3.7878
 X2.6997 Y3.7869
 X2.6861 Y3.7749
 X2.6738 Y3.7628
 X2.6589 Y3.7567
 X2.6447 Y3.7573
 X2.6345 Y3.7651
 X2.6200 Y3.7740
 X2.6115 Y3.7629
 X2.6066 Y3.7575
 X2.5909 Y3.7536
 X2.5633 Y3.7509
 X2.5223 Y3.7493
 X2.4405 Y3.7462
 X2.3760 Y3.7410
 X2.3336 Y3.7346
 X2.3184 Y3.7273
 X2.3392 Y3.7214
 X2.3894 Y3.7183
 X2.4570 Y3.7164
 X2.5200 Y3.7130
 X2.5775 Y3.7103
 X2.6322 Y3.7098
 X2.6732 Y3.7081
 X2.6849 Y3.6985
 X2.6924 Y3.6818
 X2.7114 Y3.6611
 X2.7365 Y3.6414
 X2.7625 Y3.6275
 X2.7804 Y3.6179
 X2.7778 Y3.6099
 X2.7766 Y3.6007
 X2.7988 Y3.5870
 X2.8272 Y3.5705
 X2.8491 Y3.5526
 X2.8691 Y3.5390
 X2.8926 Y3.5326
 X2.9127 Y3.5292
 X2.9245 Y3.5229
 X2.9338 Y3.5173
 X2.9546 Y3.5083
 X2.9838 Y3.4972
 X3.0184 Y3.4853
 X3.0521 Y3.4736
 X3.0790 Y3.4632
 X3.0964 Y3.4554
 X3.1014 Y3.4511
 X3.1080 Y3.4457
 X3.1311 Y3.4396
 X3.1583 Y3.4329
 X3.1750 Y3.4259
 X3.1889 Y3.4192
 X3.2094 Y3.4129
 X3.2281 Y3.4040
 X3.2346 Y3.3897
 X3.2399 Y3.3771
 X3.2521 Y3.3684
 X3.2652 Y3.3662
 X3.2736 Y3.3729
 X3.2803 Y3.3779
 X3.2946 Y3.3726
 X3.3077 Y3.3631
 X3.2942 Y3.3564
 X3.2739 Y3.3494
 X3.2509 Y3.3410
 X3.1971 Y3.3363
 X3.1201 Y3.3518
 X3.0829 Y3.3615
 X3.0450 Y3.3696
 X3.0136 Y3.3780
 X2.9923 Y3.3884
 X2.9807 Y3.3953
 X2.9781 Y3.3854
 X2.9739 Y3.3748
 X2.9641 Y3.3708
 X2.9531 Y3.3736
 X2.9450 Y3.3834
 X2.9347 Y3.3952
 X2.9152 Y3.4062
 X2.8899 Y3.4151
 X2.8624 Y3.4200
 X2.8333 Y3.4262
 X2.8006 Y3.4377
 X2.7714 Y3.4486
 X2.7512 Y3.4531
 X2.7384 Y3.4571
 X2.7271 Y3.4668
 X2.7062 Y3.4779
 X2.6682 Y3.4846
 X2.6306 Y3.4897
 X2.6087 Y3.4964
 X2.5930 Y3.5028
 X2.5707 Y3.5071
 X2.5379 Y3.5147
 X2.4974 Y3.5287
 X2.4664 Y3.5405
 X2.4416 Y3.5478
 X2.4176 Y3.5516
 X2.3893 Y3.5533
 X2.3669 Y3.5592
 X2.3484 Y3.5724
 X2.3258 Y3.5868
 X2.2849 Y3.5907
 X2.2436 Y3.5938
 X2.2114 Y3.6012
 X2.1871 Y3.6082
 X2.1650 Y3.6105
 X2.1504 Y3.6120
 X2.1444 Y3.6172
 X2.1227 Y3.6247
 X2.0705 Y3.6315
 X2.0125 Y3.6397
 X1.9914 Y3.6519
 X1.9819 Y3.6640
 X1.9667 Y3.6736
 X1.9543 Y3.6800
 X1.9634 Y3.6820
 X1.9748 Y3.6876
 X1.9792 Y3.6998
 X1.9762 Y3.7132
 X1.9657 Y3.7225
 X1.9557 Y3.7229
 X1.9519 Y3.7151
 X1.9449 Y3.7077
 X1.9154 Y3.7176
 X1.8921 Y3.7299
 X1.8805 Y3.7417
 X1.8811 Y3.7517
 X1.8947 Y3.7588
 X1.8977 Y3.7621
 X1.8826 Y3.7641
 X1.8569 Y3.7704
 X1.8345 Y3.7840
 X1.8178 Y3.7958
 X1.8060 Y3.7976
 X1.7925 Y3.7973
 X1.7717 Y3.8033
 X1.7467 Y3.8115
 X1.7229 Y3.8160
 X1.6811 Y3.8217
 X1.6362 Y3.8308
 X1.6002 Y3.8406
 X1.5855 Y3.8480
 X1.5764 Y3.8560
 X1.5529 Y3.8625
 X1.5207 Y3.8665
 X1.4856 Y3.8670
 X1.4547 Y3.8688
 X1.4385 Y3.8759
 X1.4234 Y3.8822
 X1.3856 Y3.8757
 X1.3387 Y3.8695
 X1.2907 Y3.8703
 X1.2624 Y3.8729
 X1.2213 Y3.8754
 X1.1731 Y3.8776
 X1.1232 Y3.8792
 X1.0720 Y3.8812
 X1.0341 Y3.8842
 X1.0102 Y3.8880
 X1.0010 Y3.8926
 X0.9821 Y3.9000
 X0.9430 Y3.9027
 X0.9002 Y3.9005
 X0.8703 Y3.8933
 X0.8568 Y3.8884
 X0.8525 Y3.8933
 X0.8445 Y3.9001
 X0.8250 Y3.9028
 X0.8056 Y3.9001
 X0.7976 Y3.8936
 X0.7885 Y3.8844
 X0.7863 Y3.9149
 X0.7845 Y4.0061
 X0.7842 Y4.0262
G0 Z0.1000
 X1.4389 Y6.1556
G1 Z0.0000
 X1.4426 Y6.1693
 X1.4523 Y6.1614
 X1.4482 Y6.1471
 X1.4416 Y6.1472
 X1.4389 Y6.1556
G0 Z0.1000
 X1.2974 Y6.3802
G1 Z0.0000
 X1.2977 Y6.3856
 X1.3057 Y6.3866
 X1.3182 Y6.3831
 X1.3254 Y6.3782
 X1.3255 Y6.3738
 X1.3173 Y6.3719
 X1.3053 Y6.3743
 X1.2974 Y6.3802
G0 Z0.1000
 X1.7869 Y6.2849
G1 Z0.0000
 X1.7802 Y6.2952
 X1.7903 Y6.2931
 X1.8009 Y6.2866
 X1.8053 Y6.2791
 X1.8011 Y6.2716
 X1.7869 Y6.2849
G0 Z0.1000
 X2.2839 Y6.3847
G1 Z0.0000
 X2.2779 Y6.4021
 X2.2817 Y6.4121
 X2.2979 Y6.4167
 X2.3291 Y6.4177
 X2.3520 Y6.4172
 X2.3654 Y6.4146
 X2.3718 Y6.4091
 X2.3734 Y6.3997
 X2.3617 Y6.3759
 X2.3348 Y6.3640
 X2.3048 Y6.3663
 X2.2839 Y6.3847
G0 Z0.1000
 X2.5616 Y6.4447
G1 Z0.0000
 X2.5670 Y6.4598
 X2.5713 Y6.4677
 X2.5614 Y6.4784
 X2.5429 Y6.4855
 X2.5175 Y6.4761
 X2.4829 Y6.4676
 X2.4406 Y6.4672
 X2.4060 Y6.4738
 X2.3949 Y6.4862
 X2.3939 Y6.4945
 X2.3841 Y6.4969
 X2.3733 Y6.5002
 X2.3688 Y6.5096
 X2.3780 Y6.5206
 X2.4004 Y6.5249
 X2.4279 Y6.5222
 X2.4526 Y6.5124
 X2.4701 Y6.5051
 X2.4868 Y6.5040
 X2.4977 Y6.5084
 X2.4978 Y6.5176
 X2.4979 Y6.5265
 X2.5054 Y6.5363
 X2.5181 Y6.5418
 X2.5312 Y6.5336
 X2.5575 Y6.5286
 X2.5729 Y6.5344
 X2.5921 Y6.5369
 X2.6077 Y6.5396
 X2.6024 Y6.5508
 X2.5962 Y6.5617
 X2.6011 Y6.5641
 X2.6144 Y6.5585
 X2.6335 Y6.5454
 X2.6521 Y6.5353
 X2.6699 Y6.5318
 X2.6815 Y6.5350
 X2.6812 Y6.5449
 X2.6872 Y6.5498
 X2.7086 Y6.5502
 X2.7329 Y6.5515
 X2.7451 Y6.5584
 X2.7670 Y6.5675
 X2.8096 Y6.5697
 X2.8531 Y6.5655
 X2.8775 Y6.5554
 X2.8844 Y6.5366
 X2.8797 Y6.5214
 X2.8634 Y6.5105
 X2.8360 Y6.5043
 X2.8223 Y6.5005
 X2.8021 Y6.4930
 X2.7653 Y6.4865
 X2.7118 Y6.4852
 X2.6599 Y6.4844
 X2.6416 Y6.4753
 X2.6288 Y6.4627
 X2.6048 Y6.4495
 X2.5830 Y6.4406
 X2.5715 Y6.4371
 X2.5658 Y6.4386
 X2.5616 Y6.4447
G0 Z0.1000
 X2.8897 Y6.7540
G1 Z0.0000
 X2.8847 Y6.7619
 X2.8840 Y6.7756
 X2.8871 Y6.7884
 X2.8934 Y6.7941
 X2.9006 Y6.7892
 X2.9103 Y6.7779
 X2.9189 Y6.7649
 X2.9228 Y6.7550
 X2.9127 Y6.7491
 X2.8897 Y6.7540
G0 Z0.1000
 X3.0013 Y6.7203
G1 Z0.0000
 X2.9890 Y6.7364
 X3.0019 Y6.7387
 X3.0194 Y6.7346
 X3.0371 Y6.7249
 X3.0480 Y6.7154
 X3.0493 Y6.7115
 X3.0309 Y6.7065
 X3.0169 Y6.7086
 X3.0013 Y6.7203
G0 Z0.1000
 X3.0972 Y6.6983
G1 Z0.0000
 X3.1029 Y6.7086
 X3.1216 Y6.7098
 X3.1422 Y6.7040
 X3.1501 Y6.6953
 X3.1446 Y6.6874
 X3.1254 Y6.6839
 X3.1039 Y6.6874
 X3.0972 Y6.6983
G0 Z0.1000
 X3.2221 Y6.6610
G1 Z0.0000
 X3.2293 Y6.6707
 X3.2392 Y6.6748
 X3.2490 Y6.6707
 X3.2562 Y6.6610
 X3.2551 Y6.6504
 X3.2392 Y6.6472
 X3.2231 Y6.6504
 X3.2221 Y6.6610
G0 Z0.1000
 X2.9414 Y6.3931
G1 Z0.0000
 X2.9220 Y6.4038
 X2.9043 Y6.4162
 X2.8915 Y6.4277
 X2.8867 Y6.4359
 X2.8905 Y6.4441
 X2.8994 Y6.4570
 X2.9089 Y6.4651
 X2.9247 Y6.4709
 X2.9489 Y6.4750
 X2.9839 Y6.4781
 X3.0333 Y6.4793
 X3.0437 Y6.4744
 X3.0399 Y6.4668
 X3.0574 Y6.4611
 X3.0776 Y6.4606
 X3.0896 Y6.4662
 X3.0972 Y6.4715
 X3.1084 Y6.4658
 X3.1285 Y6.4565
 X3.1594 Y6.4491
 X3.1866 Y6.4428
 X3.1980 Y6.4361
 X3.2094 Y6.4324
 X3.2369 Y6.4328
 X3.2758 Y6.4363
 X3.2346 Y6.4190
 X3.1942 Y6.4049
 X3.1551 Y6.3952
 X3.1205 Y6.3937
 X3.0979 Y6.4079
 X3.0802 Y6.4218
 X3.0638 Y6.4258
 X3.0468 Y6.4199
 X3.0276 Y6.4040
 X2.9888 Y6.3829
 X2.9414 Y6.3931
G0 Z0.1000
 X3.3995 Y5.5223
G1 Z0.0000
 X3.4087 Y5.5320
 X3.4179 Y5.5280
 X3.4087 Y5.5182
 X3.3995 Y5.5223
G0 Z0.1000
 X3.4000 Y5.4764
G1 Z0.0000
 X3.3928 Y5.4899
 X3.4063 Y5.4966
 X3.4218 Y5.5078
 X3.4308 Y5.5309
 X3.4401 Y5.5562
 X3.4547 Y5.5760
 X3.4651 Y5.5845
 X3.4698 Y5.5863
 X3.4702 Y5.5806
 X3.4670 Y5.5665
 X3.4598 Y5.5468
 X3.4511 Y5.5348
 X3.4477 Y5.5220
 X3.4473 Y5.5131
 X3.4374 Y5.5008
 X3.4244 Y5.4868
 X3.4167 Y5.4736
 X3.4108 Y5.4668
 X3.4000 Y5.4764
G0 Z0.1000
 X3.3079 Y5.3677
G1 Z0.0000
 X3.3133 Y5.3834
 X3.3262 Y5.4031
 X3.3420 Y5.4206
 X3.3560 Y5.4297
 X3.3698 Y5.4388
 X3.3786 Y5.4541
 X3.3842 Y5.4667
 X3.3909 Y5.4622
 X3.3907 Y5.4460
 X3.3783 Y5.4224
 X3.3649 Y5.4013
 X3.3606 Y5.3898
 X3.3527 Y5.3818
 X3.3467 Y5.3849
 X3.3483 Y5.4001
 X3.3487 Y5.4093
 X3.3384 Y5.3920
 X3.3278 Y5.3750
 X3.3180 Y5.3643
 X3.3107 Y5.3613
 X3.3079 Y5.3677
G0 Z0.1000
 X3.2899 Y5.1396
G1 Z0.0000
 X3.2956 Y5.1540
 X3.3089 Y5.1787
 X3.3200 Y5.1960
 X3.3210 Y5.1924
 X3.3152 Y5.1734
 X3.3102 Y5.1534
 X3.3052 Y5.1411
 X3.2982 Y5.1334
 X3.2921 Y5.1322
 X3.2899 Y5.1396
G0 Z0.1000
 X3.2621 Y5.0634
G1 Z0.0000
 X3.2647 Y5.0735
 X3.2713 Y5.0777
 X3.2804 Y5.0691
 X3.2713 Y5.0547
 X3.2647 Y5.0550
 X3.2621 Y5.0634
G0 Z0.1000
 X3.2353 Y4.9805
G1 Z0.0000
 X3.2364 Y4.9914
 X3.2401 Y4.9926
 X3.2408 Y4.9750
 X3.2371 Y4.9710
 X3.2353 Y4.9805
G0 Z0.1000
 X3.1431 Y4.9873
G1 Z0.0000
 X3.1452 Y5.0020
 X3.1510 Y5.0243
 X3.1597 Y5.0509
 X3.1704 Y5.0790
 X3.1810 Y5.1065
 X3.1898 Y5.1315
 X3.1957 Y5.1510
 X3.1979 Y5.1626
 X3.2005 Y5.1739
 X3.2069 Y5.1787
 X3.2151 Y5.1861
 X3.2222 Y5.2039
 X3.2315 Y5.2306
 X3.2453 Y5.2592
 X3.2572 Y5.2838
 X3.2623 Y5.3005
 X3.2686 Y5.3144
 X3.2837 Y5.3320
 X3.3027 Y5.3455
 X3.3157 Y5.3416
 X3.3238 Y5.3298
 X3.3258 Y5.3192
 X3.3220 Y5.3127
 X3.3125 Y5.3130
 X3.3027 Y5.3137
 X3.2987 Y5.3081
 X3.3090 Y5.2980
 X3.3091 Y5.2887
 X3.2952 Y5.2664
 X3.2783 Y5.2400
 X3.2713 Y5.2205
 X3.2672 Y5.2104
 X3.2575 Y5.2062
 X3.2478 Y5.2013
 X3.2438 Y5.1897
 X3.2405 Y5.1748
 X3.2327 Y5.1621
 X3.2268 Y5.1533
 X3.2351 Y5.1505
 X3.2381 Y5.1476
 X3.2267 Y5.1413
 X3.2113 Y5.1316
 X3.2164 Y5.1189
 X3.2230 Y5.1062
 X3.2056 Y5.1018
 X3.1952 Y5.0972
 X3.1913 Y5.0890
 X3.1942 Y5.0810
 X3.2040 Y5.0772
 X3.2145 Y5.0744
 X3.2003 Y5.0623
 X3.1856 Y5.0470
 X3.1796 Y5.0304
 X3.1756 Y5.0165
 X3.1660 Y5.0076
 X3.1562 Y4.9960
 X3.1565 Y4.9876
 X3.1517 Y4.9763
 X3.1450 Y4.9711
 X3.1431 Y4.9873
G0 Z0.1000
 X3.1338 Y4.9492
G1 Z0.0000
 X3.1430 Y4.9583
 X3.1521 Y4.9492
 X3.1430 Y4.9400
 X3.1338 Y4.9492
G0 Z0.1000
 X3.1124 Y4.8408
G1 Z0.0000
 X3.1188 Y4.8826
 X3.1261 Y4.9017
 X3.1338 Y4.9178
 X3.1361 Y4.9270
 X3.1416 Y4.9308
 X3.1483 Y4.9225
 X3.1498 Y4.9036
 X3.1467 Y4.8839
 X3.1392 Y4.8727
 X3.1317 Y4.8620
 Y4.8402
 X3.1309 Y4.8156
 X3.1212 Y4.7975
 X3.1133 Y4.7911
 X3.1097 Y4.7942
 X3.1096 Y4.8097
 X3.1124 Y4.8408
G0 Z0.1000
 X3.0572 Y4.5291
G1 Z0.0000
 X3.0633 Y4.5434
 X3.0652 Y4.5576
 X3.0629 Y4.5686
 X3.0567 Y4.5730
 X3.0537 Y4.5757
 X3.0604 Y4.5818
 X3.0722 Y4.5858
 X3.0812 Y4.5834
 X3.0831 Y4.5694
 X3.0779 Y4.5473
 X3.0688 Y4.5268
 X3.0591 Y4.5178
 X3.0549 Y4.5211
 X3.0572 Y4.5291
G0 Z0.1000
 X3.0880 Y4.4678
G1 Z0.0000
 X3.0907 Y4.4763
 X3.0972 Y4.4765
 X3.1063 Y4.4622
 X3.0972 Y4.4535
 X3.0907 Y4.4577
 X3.0880 Y4.4678
G0 Z0.1000
 X3.2346 Y4.5729
G1 Z0.0000
 X3.2387 Y4.5820
 X3.2483 Y4.5729
 X3.2443 Y4.5637
 X3.2346 Y4.5729
G0 Z0.1000
 X3.2186 Y4.5387
G1 Z0.0000
 X3.2051 Y4.5469
 X3.1986 Y4.5551
 X3.1998 Y4.5612
 X3.2094 Y4.5635
 X3.2225 Y4.5610
 X3.2339 Y4.5547
 X3.2414 Y4.5466
 X3.2426 Y4.5384
 X3.2348 Y4.5341
 X3.2186 Y4.5387
G0 Z0.1000
 X3.2117 Y4.4881
G1 Z0.0000
 X3.1942 Y4.5042
 X3.1782 Y4.5230
 X3.1683 Y4.5387
 X3.1689 Y4.5453
 X3.1812 Y4.5399
 X3.1955 Y4.5270
 X3.2111 Y4.5141
 X3.2269 Y4.5086
 X3.2397 Y4.5059
 X3.2483 Y4.4994
 X3.2496 Y4.4902
 X3.2331 Y4.4857
 X3.2117 Y4.4881
G0 Z0.1000
 X3.2506 Y4.4507
G1 Z0.0000
 X3.2393 Y4.4562
 X3.2346 Y4.4634
 X3.2435 Y4.4714
 X3.2621 Y4.4581
 X3.2691 Y4.4487
 X3.2701 Y4.4454
 X3.2506 Y4.4507
G0 Z0.1000
 X3.3514 Y4.4137
G1 Z0.0000
 X3.3743
 X3.3756 Y4.4105
 X3.3628 Y4.4091
 X3.3500 Y4.4105
 X3.3514 Y4.4137
G0 Z0.1000
 X3.0986 Y4.4020
G1 Z0.0000
 X3.0927 Y4.4205
 X3.0924 Y4.4321
 X3.0975 Y4.4353
 X3.1073 Y4.4287
 X3.1131 Y4.4155
 X3.1133 Y4.3972
 X3.1086 Y4.3819
 X3.0986 Y4.4020
G0 Z0.1000
 X3.1430 Y4.3755
G1 Z0.0000
 X3.1454 Y4.3917
 X3.1511 Y4.3984
 X3.1588 Y4.3941
 X3.1647 Y4.3837
 X3.1674 Y4.3713
 X3.1654 Y4.3609
 X3.1504 Y4.3536
 X3.1430 Y4.3755
G0 Z0.1000
 X3.2117 Y4.3434
G1 Z0.0000
 X3.2119 Y4.3499
 X3.2203 Y4.3525
 X3.2304 Y4.3499
 X3.2346 Y4.3434
 X3.2260 Y4.3342
 X3.2117 Y4.3434
G0 Z0.1000
 X3.2590 Y4.2944
G1 Z0.0000
 X3.2535 Y4.3091
 X3.2666 Y4.3159
 X3.2763 Y4.3118
 X3.2804 Y4.3021
 X3.2736 Y4.2890
 X3.2590 Y4.2944
G0 Z0.1000
 X3.2737 Y4.2663
G1 Z0.0000
 X3.2913 Y4.2670
 X3.2952 Y4.2633
 X3.2858 Y4.2615
 X3.2750 Y4.2626
 X3.2737 Y4.2663
G0 Z0.1000
 X3.4911 Y4.1779
G1 Z0.0000
 X3.4951 Y4.1826
 X3.5049 Y4.1815
 X3.5158 Y4.1797
 X3.5181 Y4.1847
 X3.5123 Y4.1938
 X3.4991 Y4.2043
 X3.4818 Y4.2120
 X3.4721 Y4.2045
 X3.4579 Y4.1992
 X3.4563 Y4.2073
 X3.4620 Y4.2168
 X3.4723 Y4.2351
 X3.4601 Y4.2424
 X3.4495 Y4.2487
 X3.4420 Y4.2637
 X3.4315 Y4.2823
 X3.4136 Y4.2973
 X3.3960 Y4.3104
 X3.3860 Y4.3244
 X3.3767 Y4.3389
 X3.3612 Y4.3528
 X3.3394 Y4.3704
 X3.3159 Y4.3932
 X3.2972 Y4.4146
 X3.2896 Y4.4281
 X3.2936 Y4.4331
 X3.3033 Y4.4352
 X3.3130 Y4.4328
 X3.3171 Y4.4272
 X3.3242 Y4.4162
 X3.3432 Y4.3947
 X3.3702 Y4.3664
 X3.4012 Y4.3352
 X3.4326 Y4.3047
 X3.4604 Y4.2790
 X3.4808 Y4.2617
 X3.4900 Y4.2566
 X3.4854 Y4.2682
 X3.4742 Y4.2824
 X3.4689 Y4.3035
 X3.4699 Y4.3268
 X3.4777 Y4.3472
 X3.4855 Y4.3644
 X3.4836 Y4.3745
 X3.4781 Y4.3952
 X3.4798 Y4.4342
 X3.4869 Y4.4750
 X3.4975 Y4.5011
 X3.5053 Y4.5151
 X3.5050 Y4.5268
 X3.5038 Y4.5379
 X3.5098 Y4.5503
 X3.5162 Y4.5636
 X3.5100 Y4.5768
 X3.5051 Y4.5894
 X3.5186 Y4.6004
 X3.5314 Y4.6110
 X3.5289 Y4.6220
 X3.5282 Y4.6466
 X3.5342 Y4.6534
 X3.5369 Y4.6509
 X3.5397 Y4.6484
 X3.5461 Y4.6554
 X3.5535 Y4.6632
 X3.5563 Y4.6509
 X3.5593 Y4.6525
 X3.5647 Y4.6822
 X3.5740 Y4.7208
 X3.5870 Y4.7403
 X3.5967 Y4.7497
 X3.5915 Y4.7615
 X3.5861 Y4.7746
 X3.5949 Y4.7883
 X3.6138 Y4.8017
 X3.6194 Y4.7886
 X3.6217 Y4.7789
 X3.6272 Y4.7748
 X3.6415 Y4.7671
 X3.6618 Y4.7497
 X3.6794 Y4.7306
 X3.6859 Y4.7183
 X3.6880 Y4.7147
 X3.6960 Y4.7159
 X3.7088 Y4.7131
 X3.7223 Y4.6995
 X3.7427 Y4.6729
 X3.7661 Y4.6477
 X3.7865 Y4.6302
 X3.7977 Y4.6260
 X3.8032 Y4.6241
 X3.8087 Y4.6114
 X3.8215 Y4.5927
 X3.8449 Y4.5763
 X3.8683 Y4.5604
 X3.8759 Y4.5420
 X3.8704 Y4.5226
 X3.8564 Y4.5008
 X3.8379 Y4.4814
 X3.8187 Y4.4692
 X3.8073 Y4.4609
 X3.8026 Y4.4492
 X3.7943 Y4.4356
 X3.7811 Y4.4467
 X3.7759 Y4.4494
 X3.7701 Y4.4374
 X3.7635 Y4.4229
 X3.7563 Y4.4168
 X3.7494 Y4.4115
 X3.7431 Y4.3985
 X3.7358 Y4.3822
 X3.7265 Y4.3684
 X3.7045 Y4.3426
 X3.6815 Y4.3126
 X3.6634 Y4.2864
 X3.6560 Y4.2721
 X3.6481 Y4.2575
 X3.6288 Y4.2336
 X3.6110 Y4.2097
 X3.6065 Y4.1952
 X3.6041 Y4.1897
 X3.5914 Y4.1873
 X3.5805 Y4.1879
 X3.5763 Y4.1905
 X3.5784 Y4.1973
 X3.5863 Y4.2100
 X3.5967 Y4.2353
 X3.6011 Y4.2643
 X3.6041 Y4.2877
 X3.6116 Y4.2995
 X3.6178 Y4.3108
 X3.6157 Y4.3376
 X3.6080 Y4.3614
 X3.5985 Y4.3685
 X3.5857 Y4.3519
 X3.5691 Y4.3156
 X3.5530 Y4.2705
 X3.5419 Y4.2276
 X3.5344 Y4.1991
 X3.5258 Y4.1804
 X3.5157 Y4.1726
 X3.5042 Y4.1693
 X3.4950 Y4.1711
 X3.4911 Y4.1779
G0 Z0.1000
 X3.5186 Y3.7926
G1 Z0.0000
 X3.5226 Y3.7992
 X3.5323 Y3.8019
 X3.5420 Y3.7992
 X3.5461 Y3.7926
 X3.5420 Y3.7862
 X3.5323 Y3.7835
 X3.5226 Y3.7862
 X3.5186 Y3.7926
G0 Z0.1000
 X3.5577 Y3.3944
G1 Z0.0000
 X3.5753 Y3.3951
 X3.5793 Y3.3914
 X3.5698 Y3.3895
 X3.5590 Y3.3907
 X3.5577 Y3.3944
G0 Z0.1000
 X3.6148 Y3.2511
G1 Z0.0000
 X3.6291 Y3.2603
 X3.6377 Y3.2511
 X3.6335 Y3.2447
 X3.6234 Y3.2420
 X3.6150 Y3.2447
 X3.6148 Y3.2511
G0 Z0.1000
 X3.6240 Y3.3980
G1 Z0.0000
 X3.6280 Y3.4072
 X3.6377 Y3.3980
 X3.6337 Y3.3888
 X3.6240 Y3.3980
G0 Z0.1000
 X3.7408 Y3.4319
G1 Z0.0000
 X3.7729
 X3.7747 Y3.4289
 X3.7568 Y3.4276
 X3.7389 Y3.4289
 X3.7408 Y3.4319
G0 Z0.1000
 X3.9059 Y3.4769
G1 Z0.0000
 X3.9234 Y3.4777
 X3.9274 Y3.4740
 X3.9179 Y3.4722
 X3.9071 Y3.4733
 X3.9059 Y3.4769
G0 Z0.1000
 X3.5835 Y3.8424
G1 Z0.0000
 X3.5846 Y3.8532
 X3.5883 Y3.8544
 X3.5890 Y3.8369
 X3.5853 Y3.8329
 X3.5835 Y3.8424
G0 Z0.1000
 X3.5553 Y3.9878
G1 Z0.0000
 X3.5615 Y4.0040
 X3.5756 Y4.0278
 X3.5913 Y4.0495
 X3.6020 Y4.0589
 X3.6092 Y4.0561
 X3.6084 Y4.0477
 X3.5996 Y4.0334
 X3.5827 Y4.0130
 X3.5633 Y3.9929
 X3.5553 Y3.9878
G0 Z0.1000
 X3.6103 Y4.0813
G1 Z0.0000
 X3.6129 Y4.0914
 X3.6194 Y4.0955
 X3.6286 Y4.0869
 X3.6194 Y4.0726
 X3.6129 Y4.0729
 X3.6103 Y4.0813
G0 Z0.1000
 X3.5895 Y4.1102
G1 Z0.0000
 X3.5866 Y4.1186
 X3.5891 Y4.1286
 X3.5949 Y4.1358
 X3.6021 Y4.1363
 X3.6103 Y4.1179
 X3.6035 Y4.1054
 X3.5895 Y4.1102
G0 Z0.1000
 X3.6377 Y4.1036
G1 Z0.0000
 X3.6474 Y4.1139
 X3.6517 Y4.1228
 X3.6534 Y4.1342
 X3.6646 Y4.1496
 X3.6796 Y4.1632
 X3.6935 Y4.1690
 X3.7059 Y4.1751
 X3.7217 Y4.1897
 X3.7345 Y4.2032
 X3.7277 Y4.1912
 X3.7007 Y4.1545
 X3.6712 Y4.1223
 X3.6474 Y4.1028
 X3.6377 Y4.1036
G0 Z0.1000
 X3.6294 Y4.1663
G1 Z0.0000
 X3.6393 Y4.1793
 X3.6460 Y4.1821
 X3.6442 Y4.1744
 X3.6338 Y4.1619
 X3.6214 Y4.1512
 X3.6294 Y4.1663
G0 Z0.1000
 X3.7570 Y4.1910
G1 Z0.0000
 X3.7660 Y4.2095
 X3.7868 Y4.2391
 X3.8095 Y4.2666
 X3.8239 Y4.2789
 X3.8249 Y4.2745
 X3.8173 Y4.2610
 X3.8009 Y4.2381
 X3.7756 Y4.2057
 X3.7625 Y4.1919
 X3.7570 Y4.1910
G0 Z0.1000
 X3.7803 Y4.2726
G1 Z0.0000
 X3.7862 Y4.2828
 X3.7917 Y4.2840
 X3.7920 Y4.2770
 X3.7854 Y4.2675
 X3.7776 Y4.2618
 X3.7803 Y4.2726
G0 Z0.1000
 X3.8354 Y4.2953
G1 Z0.0000
 X3.8377 Y4.3013
 X3.8473 Y4.3144
 X3.8627 Y4.3325
 X3.8824 Y4.3537
 X3.9027 Y4.3743
 X3.9201 Y4.3905
 X3.9327 Y4.4006
 X3.9385 Y4.4031
 X3.9361 Y4.3971
 X3.9265 Y4.3841
 X3.9111 Y4.3659
 X3.8915 Y4.3446
 X3.8712 Y4.3240
 X3.8538 Y4.3078
 X3.8413 Y4.2977
 X3.8354 Y4.2953
G0 Z0.1000
 X3.8393 Y4.3474
G1 Z0.0000
 X3.8484 Y4.3571
 X3.8576 Y4.3531
 X3.8484 Y4.3434
 X3.8393 Y4.3474
G0 Z0.1000
 X3.9168 Y4.4256
G1 Z0.0000
 X3.9356 Y4.4435
 X3.9345 Y4.4313
 X3.9266 Y4.4204
 X3.9146 Y4.4125
 X3.9059 Y4.4116
 X3.9168 Y4.4256
G0 Z0.1000
 X3.9538 Y4.4168
G1 Z0.0000
 X3.9686 Y4.4260
 X3.9721 Y4.4168
 X3.9573 Y4.4077
 X3.9538 Y4.4168
G0 Z0.1000
 X4.0008 Y4.4516
G1 Z0.0000
 X4.0027 Y4.4601
 X4.0139 Y4.4701
 X4.0260 Y4.4763
 X4.0310 Y4.4757
 X4.0286 Y4.4692
 X4.0185 Y4.4574
 X4.0079 Y4.4503
 X4.0008 Y4.4516
G0 Z0.1000
 X4.0362 Y4.4994
G1 Z0.0000
 X4.0403 Y4.5086
 X4.0500 Y4.4994
 X4.0460 Y4.4902
 X4.0362 Y4.4994
G0 Z0.1000
 X4.0866 Y4.5138
G1 Z0.0000
 X4.0909 Y4.5229
 X4.1010 Y4.5332
 X4.1134 Y4.5418
 X4.1241 Y4.5453
 X4.1279 Y4.5405
 X4.1187 Y4.5270
 X4.0967 Y4.5096
 X4.0866 Y4.5138
G0 Z0.1000
 X3.4919 Y4.6501
G1 Z0.0000
 X3.4929 Y4.6609
 X3.4967 Y4.6622
 X3.4974 Y4.6446
 X3.4937 Y4.6406
 X3.4919 Y4.6501
G0 Z0.1000
 X3.5736 Y4.8258
G1 Z0.0000
 X3.5762 Y4.8409
 X3.5827 Y4.8436
 X3.5892 Y4.8344
 X3.5919 Y4.8201
 X3.5892 Y4.8076
 X3.5827 Y4.8023
 X3.5762 Y4.8092
 X3.5736 Y4.8258
G0 Z0.1000
 X3.5842 Y5.0501
G1 Z0.0000
 X3.5855 Y5.0630
 X3.5888 Y5.0616
 Y5.0387
 X3.5855 Y5.0373
 X3.5842 Y5.0501
G0 Z0.1000
 X3.7026 Y5.0999
G1 Z0.0000
 X3.7037 Y5.1107
 X3.7074 Y5.1119
 X3.7081 Y5.0943
 X3.7044 Y5.0903
 X3.7026 Y5.0999
G0 Z0.1000
 X3.7522 Y4.9216
G1 Z0.0000
 X3.7563 Y4.9308
 X3.7660 Y4.9216
 X3.7619 Y4.9124
 X3.7522 Y4.9216
G0 Z0.1000
 X3.7235 Y4.8439
G1 Z0.0000
 X3.7247 Y4.8579
 X3.7280 Y4.8642
 X3.7353
 X3.7490 Y4.8591
 X3.7579 Y4.8512
 X3.7432 Y4.8371
 X3.7312 Y4.8286
 X3.7251 Y4.8265
 X3.7231 Y4.8314
 X3.7235 Y4.8439
G0 Z0.1000
 X3.9263 Y4.7748
G1 Z0.0000
 X3.9298 Y4.7840
 X3.9447 Y4.7748
 X3.9411 Y4.7656
 X3.9263 Y4.7748
G0 Z0.1000
 X3.9767
G1 Z0.0000
 X3.9858 Y4.7840
 X3.9950 Y4.7748
 X3.9858 Y4.7656
 X3.9767 Y4.7748
G0 Z0.1000
 X3.9309 Y4.7325
G1 Z0.0000
 X3.9352 Y4.7381
 X3.9452 Y4.7414
 X3.9561 Y4.7415
 X3.9632 Y4.7377
 X3.9615 Y4.7315
 X3.9498 Y4.7289
 X3.9364 Y4.7300
 X3.9309 Y4.7325
G0 Z0.1000
 X3.9316 Y4.6960
G1 Z0.0000
 X3.9327 Y4.7068
 X3.9364 Y4.7081
 X3.9372 Y4.6904
 X3.9334 Y4.6865
 X3.9316 Y4.6960
G0 Z0.1000
 X3.9927 Y4.6758
G1 Z0.0000
 X3.9731 Y4.6849
 X3.9688 Y4.6923
 X3.9793 Y4.6971
 X4.0041 Y4.6981
 X4.0269 Y4.6963
 X4.0383 Y4.6923
 X4.0389 Y4.6858
 X4.0294 Y4.6762
 X4.0144 Y4.6717
 X3.9927 Y4.6758
G0 Z0.1000
 X4.0156 Y4.7243
G1 Z0.0000
 X4.0047 Y4.7416
 X4.0130 Y4.7472
 X4.0221 Y4.7419
 X4.0317 Y4.7289
 X4.0363 Y4.7166
 X4.0342 Y4.7114
 X4.0269 Y4.7139
 X4.0156 Y4.7243
G0 Z0.1000
 X4.0634 Y4.7476
G1 Z0.0000
 X4.0479 Y4.7594
 X4.0343 Y4.7616
 X4.0266
 X4.0315 Y4.7744
 X4.0384 Y4.7889
 X4.0399 Y4.7974
 X4.0353 Y4.8013
 X4.0245 Y4.8023
 X4.0070 Y4.8065
 X3.9879 Y4.8166
 X3.9723 Y4.8242
 X3.9595 Y4.8251
 X3.9526 Y4.8200
 X3.9549 Y4.8097
 X3.9556 Y4.8039
 X3.9482 Y4.8041
 X3.9383 Y4.8175
 X3.9325 Y4.8442
 X3.9215 Y4.8881
 X3.9002 Y4.9007
 X3.8899 Y4.9071
 X3.8865 Y4.9256
 X3.8900 Y4.9473
 X3.9004 Y4.9635
 X3.9118 Y4.9757
 X3.9034 Y4.9855
 X3.8920 Y4.9888
 X3.8867 Y4.9765
 X3.8803 Y4.9621
 X3.8705 Y4.9586
 X3.8615 Y4.9652
 X3.8576 Y4.9813
 X3.8539 Y4.9981
 X3.8439 Y5.0042
 X3.8342 Y5.0004
 X3.8301 Y4.9910
 X3.8275 Y4.9801
 X3.8211 Y4.9722
 X3.8114 Y4.9778
 X3.7999 Y4.9966
 X3.7913 Y5.0187
 X3.7907 Y5.0341
 X3.8039 Y5.0399
 X3.8141 Y5.0203
 X3.8183 Y5.0062
 X3.8247 Y5.0152
 X3.8251 Y5.0321
 X3.8126 Y5.0514
 X3.7990 Y5.0634
 X3.7934
 X3.7904 Y5.0613
 X3.7838 Y5.0685
 X3.7766 Y5.0762
 X3.7771 Y5.0642
 X3.7747 Y5.0502
 X3.7639 Y5.0430
 X3.7501 Y5.0484
 X3.7420 Y5.0778
 X3.7340 Y5.1062
 X3.7235 Y5.1208
 X3.7135 Y5.1284
 X3.7116 Y5.1385
 X3.7173 Y5.1486
 X3.7300 Y5.1559
 X3.7450 Y5.1586
 X3.7544 Y5.1565
 X3.7507 Y5.1511
 X3.7425 Y5.1472
 X3.7424 Y5.1374
 X3.7495 Y5.1245
 X3.7629 Y5.1113
 X3.7808 Y5.1003
 X3.7843 Y5.1100
 X3.7815 Y5.1257
 X3.7748 Y5.1425
 X3.7699 Y5.1560
 X3.7748 Y5.1603
 X3.7843 Y5.1686
 X3.7785 Y5.1730
 X3.7645 Y5.1718
 X3.7512 Y5.1704
 X3.7514 Y5.1772
 X3.7598 Y5.1847
 X3.7711 Y5.1878
 X3.7804 Y5.1906
 X3.7843 Y5.1971
 X3.7906 Y5.2023
 X3.8060 Y5.2011
 X3.8235 Y5.2004
 X3.8234 Y5.2192
 X3.8230 Y5.2375
 X3.8330 Y5.2429
 X3.8452 Y5.2482
 X3.8525 Y5.2616
 X3.8541 Y5.2793
 X3.8486 Y5.2976
 X3.8306 Y5.3153
 X3.8099 Y5.2963
 X3.7970 Y5.2826
 X3.7908 Y5.2867
 X3.7925 Y5.3040
 X3.8027 Y5.3303
 X3.8145 Y5.3605
 X3.8103 Y5.3778
 X3.7955 Y5.3833
 X3.7807 Y5.3719
 X3.7705 Y5.3499
 X3.7695 Y5.3237
 X3.7717 Y5.3029
 X3.7618 Y5.3068
 X3.7501 Y5.3128
 X3.7396 Y5.3118
 X3.7321 Y5.3045
 X3.7293 Y5.2918
 X3.7346 Y5.2817
 X3.7528 Y5.2820
 X3.7697 Y5.2827
 X3.7715 Y5.2743
 X3.7716 Y5.2667
 X3.7802 Y5.2673
 X3.7902 Y5.2664
 X3.7935 Y5.2530
 X3.7904 Y5.2389
 X3.7764 Y5.2443
 X3.7586 Y5.2511
 X3.7443 Y5.2488
 X3.7353 Y5.2381
 X3.7334 Y5.2203
 X3.7329 Y5.2021
 X3.7281 Y5.1916
 X3.7202 Y5.1965
 X3.7147 Y5.2034
 X3.7018 Y5.2062
 X3.6874 Y5.2119
 X3.6835 Y5.2331
 X3.6701 Y5.2722
 X3.6325 Y5.2944
 X3.6180 Y5.3003
 X3.6108 Y5.3076
 X3.6120 Y5.3137
 X3.6228 Y5.3163
 X3.6332 Y5.3254
 X3.6405 Y5.3481
 X3.6516 Y5.3764
 X3.6723 Y5.4055
 X3.6953 Y5.4272
 X3.7135 Y5.4333
 X3.7236 Y5.4269
 X3.7269 Y5.4185
 X3.7236 Y5.4112
 X3.7136 Y5.4081
 X3.6978 Y5.4000
 X3.6848 Y5.3760
 X3.6787 Y5.3379
 X3.6979 Y5.3255
 X3.7125 Y5.3319
 X3.7329 Y5.3480
 X3.7540 Y5.3691
 X3.7706 Y5.3908
 X3.7819 Y5.4082
 X3.7964 Y5.4292
 X3.8053 Y5.4431
 X3.8085 Y5.4542
 X3.8059 Y5.4668
 X3.7978 Y5.4855
 X3.7823 Y5.5181
 X3.7632 Y5.4929
 X3.7488 Y5.4739
 X3.7409 Y5.4634
 X3.7340 Y5.4632
 X3.7283 Y5.4784
 X3.7246 Y5.5052
 X3.7237 Y5.5399
 X3.7252 Y5.5721
 X3.7294 Y5.5888
 X3.7391 Y5.5944
 X3.7568 Y5.5930
 X3.7632 Y5.5881
 X3.7659 Y5.5779
 X3.7686 Y5.5682
 X3.7751 Y5.5641
 X3.7834 Y5.5684
 X3.7838 Y5.5780
 X3.7776 Y5.5888
 X3.7659 Y5.5963
 X3.7484 Y5.6091
 X3.7573 Y5.6241
 X3.7632 Y5.6338
 X3.7641 Y5.6489
 X3.7666 Y5.6629
 X3.7765 Y5.6700
 X3.7900 Y5.6693
 X3.8033 Y5.6597
 X3.8142 Y5.6506
 X3.8253 Y5.6467
 X3.8449 Y5.6516
 X3.8687 Y5.6634
 X3.8905 Y5.6787
 X3.9039 Y5.6936
 X3.9129 Y5.7049
 X3.9211 Y5.7068
 X3.9299 Y5.7117
 X3.9403 Y5.7301
 X3.9471 Y5.7558
 X3.9369 Y5.7732
 X3.9258 Y5.7813
 X3.9217 Y5.7776
 X3.9159 Y5.7668
 X3.9020 Y5.7561
 X3.8911 Y5.7507
 X3.8876 Y5.7509
 X3.8918 Y5.7586
 X3.9035 Y5.7754
 X3.9186 Y5.8044
 X3.9248 Y5.8320
 X3.9267 Y5.8484
 X3.9319 Y5.8470
 X3.9389 Y5.8417
 X3.9455 Y5.8521
 X3.9469 Y5.8662
 X3.9404 Y5.8760
 X3.9339 Y5.8830
 X3.9392 Y5.8895
 X3.9449 Y5.8972
 X3.9441 Y5.9067
 Y5.9097
 X3.9518 Y5.9015
 X3.9651 Y5.8892
 X3.9761 Y5.8856
 X3.9823 Y5.8906
 X3.9813 Y5.9037
 X3.9810 Y5.9186
 X3.9984 Y5.9221
 X4.0163 Y5.9248
 X4.0271 Y5.9313
 X4.0419 Y5.9405
 X4.0463 Y5.9371
 X4.0439 Y5.9290
 X4.0396 Y5.9162
 X4.0393 Y5.9015
 X4.0383 Y5.8901
 X4.0322 Y5.8854
 X4.0238 Y5.8822
 X4.0236 Y5.8733
 X4.0314 Y5.8601
 X4.0465 Y5.8439
 X4.0691 Y5.8281
 X4.0877 Y5.8309
 X4.0999 Y5.8403
 X4.1050 Y5.8500
 X4.1088 Y5.8555
 X4.1179 Y5.8548
 X4.1358 Y5.8597
 X4.1606 Y5.8783
 X4.1749 Y5.8925
 X4.1810 Y5.9004
 X4.1794 Y5.9031
 X4.1705 Y5.9015
 X4.1573 Y5.9005
 X4.1514 Y5.9070
 X4.1525 Y5.9218
 X4.1603 Y5.9460
 X4.1636 Y5.9636
 X4.1602 Y5.9769
 X4.1517 Y5.9834
 X4.1397 Y5.9806
 X4.1305 Y5.9813
 X4.1189 Y5.9895
 X4.1101 Y6.0055
 X4.1196 Y6.0314
 X4.1323 Y6.0514
 X4.1429 Y6.0598
 X4.1460 Y6.0693
 X4.1474 Y6.0868
 X4.1592 Y6.1155
 X4.1726 Y6.1450
 X4.1783 Y6.1645
 X4.1822 Y6.1776
 X4.1911 Y6.1880
 X4.2010 Y6.1923
 X4.2076 Y6.1873
 X4.2146 Y6.1811
 X4.2308 Y6.1870
 X4.2495 Y6.1941
 X4.2670 Y6.1966
 X4.2741 Y6.1943
 X4.2607 Y6.1890
 X4.2469 Y6.1826
 X4.2725 Y6.1779
 X4.2990 Y6.1771
 X4.3020 Y6.1868
 X4.3006 Y6.1953
 X4.3109 Y6.1885
 X4.3208 Y6.1754
 X4.3249 Y6.1601
 X4.3280 Y6.1447
 X4.3363 Y6.1376
 X4.3484 Y6.1395
 X4.3626 Y6.1506
 X4.3788 Y6.1629
 X4.3964 Y6.1693
 X4.4106 Y6.1689
 X4.4164 Y6.1608
 X4.4125 Y6.1543
 X4.4033 Y6.1516
 X4.3904 Y6.1458
 X4.3769 Y6.1324
 X4.3673 Y6.1169
 X4.3663 Y6.1053
 X4.3608 Y6.0990
 X4.3421 Y6.0930
 X4.3178 Y6.0840
 X4.2945 Y6.0684
 X4.2770 Y6.0505
 X4.2700 Y6.0339
 X4.2746 Y6.0263
 X4.2859 Y6.0250
 X4.3022 Y6.0210
 X4.3191 Y6.0067
 X4.3284 Y5.9941
 X4.3312 Y5.9852
 X4.3271 Y5.9764
 X4.3158 Y5.9635
 X4.3036 Y5.9459
 X4.3025 Y5.9323
 X4.3117 Y5.9246
 X4.3305
 X4.3482 Y5.9245
 X4.3512 Y5.9159
 X4.3402 Y5.9007
 X4.3157 Y5.8808
 X4.2898 Y5.8605
 X4.2790 Y5.8474
 X4.2750 Y5.8418
 X4.2653 Y5.8395
 X4.2556 Y5.8434
 X4.2516 Y5.8525
 X4.2462 Y5.8793
 X4.2482 Y5.8949
 X4.2606 Y5.9128
 X4.2741 Y5.9312
 X4.2694 Y5.9457
 X4.2640 Y5.9551
 X4.2665 Y5.9590
 X4.2653 Y5.9648
 X4.2516 Y5.9783
 X4.2385 Y5.9911
 X4.2447 Y5.9921
 X4.2560 Y5.9909
 X4.2607 Y5.9952
 X4.2543 Y6.0061
 X4.2389 Y6.0103
 X4.2201 Y6.0074
 X4.2034 Y5.9973
 X4.1919 Y5.9775
 X4.1906 Y5.9552
 X4.1987 Y5.9359
 X4.2153 Y5.9246
 X4.2279 Y5.9188
 X4.2332 Y5.9113
 X4.2248 Y5.9079
 X4.2129 Y5.9024
 X4.1974 Y5.8817
 X4.1840 Y5.8552
 X4.1783 Y5.8320
 X4.1843 Y5.8143
 X4.1989 Y5.7983
 X4.2139 Y5.7844
 X4.2034 Y5.7744
 X4.1921 Y5.7640
 X4.1874 Y5.7519
 X4.1835 Y5.7425
 X4.1740 Y5.7386
 X4.1606 Y5.7335
 X4.1512 Y5.7213
 X4.1479 Y5.7066
 X4.1531 Y5.6941
 X4.1588 Y5.6859
 X4.1534 Y5.6835
 X4.1449 Y5.6868
 X4.1389 Y5.6949
 X4.1304 Y5.6987
 X4.1131 Y5.6856
 X4.0973 Y5.6653
 X4.1033 Y5.6459
 X4.1104 Y5.6284
 X4.1047 Y5.6143
 X4.0988 Y5.6030
 X4.0994 Y5.5933
 X4.0987 Y5.5806
 X4.0853 Y5.5682
 X4.0640 Y5.5594
 X4.0399 Y5.5570
 X4.0146 Y5.5556
 X4.0088 Y5.5412
 X4.0133 Y5.5275
 X4.0297 Y5.5251
 X4.0506 Y5.5274
 X4.0316 Y5.5068
 X4.0145 Y5.4927
 X4.0044 Y5.4996
 X3.9999 Y5.5111
 X4.0008 Y5.5201
 X3.9956 Y5.5275
 X3.9876 Y5.5347
 X3.9861 Y5.5511
 X3.9903 Y5.5686
 X3.9996 Y5.5792
 X4.0101 Y5.5914
 X4.0136 Y5.6112
 X4.0098 Y5.6295
 X3.9990 Y5.6376
 X3.9890 Y5.6427
 X3.9876 Y5.6580
 X3.9846 Y5.6746
 X3.9739 Y5.6825
 X3.9612 Y5.6802
 X3.9522 Y5.6666
 X3.9438 Y5.6548
 X3.9294 Y5.6494
 X3.9137 Y5.6508
 X3.9016 Y5.6598
 X3.8949 Y5.6661
 X3.8915 Y5.6583
 X3.8913 Y5.6343
 X3.8938 Y5.5917
 X3.8970 Y5.5537
 X3.9011 Y5.5334
 X3.9079 Y5.5255
 X3.9194 Y5.5250
 X3.9340 Y5.5239
 X3.9401 Y5.5181
 X3.9434 Y5.5117
 X3.9516 Y5.5091
 X3.9631 Y5.5037
 X3.9746 Y5.4907
 X3.9809 Y5.4755
 X3.9677 Y5.4723
 X3.9514 Y5.4778
 X3.9379 Y5.4907
 X3.9167 Y5.5084
 X3.9001 Y5.4953
 X3.8967 Y5.4774
 X3.9027 Y5.4651
 X3.9181 Y5.4583
 X3.9431 Y5.4569
 X3.9633 Y5.4573
 X3.9744 Y5.4551
 X3.9788 Y5.4495
 X3.9786 Y5.4394
 X3.9806 Y5.4233
 X3.9891 Y5.4098
 X4.0009 Y5.4021
 X4.0130 Y5.4033
 X4.0183 Y5.4176
 X4.0168 Y5.4454
 X4.0150 Y5.4720
 X4.0206 Y5.4816
 X4.0446 Y5.4871
 X4.0554 Y5.4859
 X4.0557 Y5.4642
 X4.0563 Y5.4432
 X4.0630 Y5.4284
 X4.0746 Y5.4211
 X4.0901 Y5.4227
 X4.1017 Y5.4248
 X4.1040 Y5.4189
 X4.0973 Y5.4062
 X4.0817 Y5.3874
 X4.0680 Y5.3696
 X4.0679 Y5.3622
 X4.0775 Y5.3530
 X4.0706 Y5.3449
 X4.0570 Y5.3454
 X4.0340 Y5.3449
 X4.0176 Y5.3435
 X4.0087 Y5.3392
 X4.0049 Y5.3295
 X4.0042 Y5.3120
 X4.0070 Y5.2884
 X4.0170 Y5.2851
 X4.0276 Y5.2860
 X4.0352 Y5.2812
 X4.0337 Y5.2737
 X4.0224 Y5.2677
 X4.0099 Y5.2601
 X4.0046 Y5.2487
 X4.0070 Y5.2383
 X4.0179 Y5.2337
 X4.0282 Y5.2269
 X4.0317 Y5.2062
 X4.0350 Y5.1858
 X4.0448 Y5.1787
 X4.0538 Y5.1734
 X4.0566 Y5.1603
 X4.0531 Y5.1456
 X4.0463 Y5.1433
 X4.0371 Y5.1531
 X4.0264 Y5.1744
 X4.0101 Y5.2002
 X3.9896 Y5.2157
 X3.9720 Y5.2221
 X3.9629 Y5.2231
 X3.9589 Y5.2174
 X3.9567 Y5.2039
 X3.9526 Y5.1900
 X3.9469 Y5.1855
 X3.9351 Y5.1872
 X3.9163 Y5.1878
 X3.8973 Y5.1923
 X3.8879 Y5.2056
 X3.8708 Y5.2180
 X3.8384 Y5.1961
 X3.8279 Y5.1822
 X3.8354 Y5.1750
 X3.8466 Y5.1676
 X3.8483 Y5.1598
 X3.8416 Y5.1548
 X3.8278 Y5.1556
 X3.8155 Y5.1579
 X3.8190 Y5.1533
 X3.8255 Y5.1430
 X3.8249 Y5.1298
 X3.8255 Y5.1162
 X3.8406 Y5.1063
 X3.8582 Y5.1020
 X3.8702 Y5.1030
 X3.8746 Y5.1026
 X3.8737 Y5.0950
 X3.8734 Y5.0806
 X3.8790 Y5.0639
 X3.8850 Y5.0446
 X3.8861 Y5.0239
 X3.8868 Y5.0092
 X3.8941 Y5.0087
 X3.9003 Y5.0166
 X3.9004 Y5.0263
 X3.9013 Y5.0407
 X3.9094 Y5.0598
 X3.9228 Y5.0823
 X3.9186 Y5.0553
 X3.9193 Y5.0173
 X3.9365 Y5.0042
 X3.9454 Y5.0002
 X3.9492 Y4.9904
 X3.9532 Y4.9808
 X3.9629 Y4.9767
 X3.9730 Y4.9830
 X3.9767 Y5.0003
 X3.9732 Y5.0181
 X3.9595 Y5.0184
 X3.9457 Y5.0195
 X3.9374 Y5.0315
 X3.9355 Y5.0513
 X3.9410 Y5.0764
 X3.9466 Y5.0993
 X3.9480 Y5.1194
 X3.9465 Y5.1476
 X3.9497 Y5.1604
 X3.9589 Y5.1591
 X3.9755 Y5.1448
 X4.0019 Y5.1190
 X3.9778 Y5.1131
 X3.9604 Y5.1071
 X3.9723 Y5.1011
 X3.9866 Y5.0894
 X3.9875 Y5.0599
 X3.9880 Y5.0333
 X3.9941 Y5.0186
 X4.0014 Y5.0069
 X4.0049 Y4.9876
 X4.0067 Y4.9736
 X4.0103 Y4.9744
 X4.0187 Y4.9830
 X4.0317 Y4.9855
 X4.0446 Y4.9821
 X4.0530 Y4.9729
 X4.0526 Y4.9622
 X4.0448 Y4.9548
 X4.0355 Y4.9471
 X4.0317 Y4.9357
 X4.0286 Y4.9258
 X4.0214 Y4.9216
 X4.0155 Y4.9270
 X4.0160 Y4.9400
 X4.0159 Y4.9543
 X4.0033 Y4.9583
 X3.9910 Y4.9532
 X3.9859 Y4.9413
 X3.9885 Y4.9279
 X3.9995 Y4.9184
 X4.0086 Y4.9080
 X4.0076 Y4.8860
 X4.0075 Y4.8612
 X4.0215 Y4.8423
 X4.0351 Y4.8275
 X4.0408 Y4.8151
 X4.0455 Y4.8057
 X4.0566 Y4.7982
 X4.0625 Y4.7858
 X4.0598 Y4.7763
 X4.0711 Y4.7610
 X4.0855 Y4.7484
 X4.0835 Y4.7594
 X4.0820 Y4.7764
 X4.0869 Y4.7935
 X4.0986 Y4.8057
 X4.1179 Y4.8026
 X4.1349 Y4.7984
 X4.1452 Y4.7999
 X4.1490 Y4.7986
 X4.1505 Y4.7878
 X4.1470 Y4.7708
 X4.1388 Y4.7560
 X4.1281 Y4.7462
 X4.1172 Y4.7446
 X4.1007 Y4.7386
 X4.0858 Y4.7299
 X4.0634 Y4.7476
G0 Z0.1000
 X4.0842 Y4.8585
G1 Z0.0000
 X4.0937 Y4.8651
 X4.1006 Y4.8648
 X4.0994 Y4.8594
 X4.0894 Y4.8534
 X4.0784 Y4.8507
 X4.0842 Y4.8585
G0 Z0.1000
 X4.2351 Y4.7744
G1 Z0.0000
 X4.2416 Y4.7892
 X4.2374 Y4.7989
 X4.2201 Y4.8051
 X4.1876 Y4.8094
 X4.1531 Y4.8159
 X4.1416 Y4.8264
 X4.1389 Y4.8354
 X4.1324 Y4.8390
 X4.1259 Y4.8431
 X4.1233 Y4.8528
 X4.1259 Y4.8626
 X4.1324 Y4.8666
 X4.1408 Y4.8786
 X4.1241 Y4.9089
 X4.1097 Y4.9230
 X4.1019 Y4.9195
 X4.0962 Y4.9132
 X4.0879 Y4.9213
 X4.0883 Y4.9466
 X4.0926 Y4.9558
 X4.0832 Y4.9583
 X4.0733 Y4.9621
 X4.0687 Y4.9710
 X4.0699 Y4.9817
 X4.0776 Y4.9905
 X4.0911 Y4.9937
 X4.1054 Y4.9902
 X4.1156 Y4.9821
 X4.1172 Y4.9716
 X4.1185 Y4.9616
 X4.1337 Y4.9585
 X4.1483 Y4.9604
 X4.1416 Y4.9677
 X4.1324 Y4.9767
 X4.1416 Y4.9856
 X4.1531 Y4.9881
 X4.1583 Y4.9719
 X4.1631 Y4.9559
 X4.1708 Y4.9492
 X4.1746 Y4.9453
 X4.1687 Y4.9349
 X4.1614 Y4.9239
 X4.1687 Y4.9234
 X4.1782 Y4.9220
 X4.1847 Y4.9148
 X4.1835 Y4.9067
 X4.1750 Y4.9033
 X4.1617 Y4.9000
 X4.1546 Y4.8919
 X4.1547 Y4.8814
 X4.1629 Y4.8712
 X4.1720 Y4.8619
 X4.1726 Y4.8548
 X4.1743 Y4.8525
 X4.1859 Y4.8543
 X4.1980 Y4.8614
 X4.1995 Y4.8721
 X4.1990 Y4.8812
 X4.2047 Y4.8849
 X4.2119 Y4.8811
 X4.2149 Y4.8718
 X4.2203 Y4.8608
 X4.2332 Y4.8528
 X4.2461 Y4.8436
 X4.2515 Y4.8295
 X4.2547 Y4.8182
 X4.2632 Y4.8166
 X4.2768 Y4.8155
 X4.2930 Y4.8065
 X4.3026 Y4.7984
 X4.3051 Y4.7945
 X4.2996 Y4.7940
 X4.2856 Y4.7959
 X4.2688 Y4.7975
 X4.2642 Y4.7957
 X4.2626 Y4.7874
 X4.2532 Y4.7741
 X4.2410 Y4.7618
 X4.2311 Y4.7564
 X4.2292 Y4.7617
 X4.2351 Y4.7744
G0 Z0.1000
 X4.3298 Y4.8203
G1 Z0.0000
 X4.3210 Y4.8304
 X4.3194 Y4.8345
 X4.3261 Y4.8333
 X4.3421 Y4.8274
 X4.3600 Y4.8189
 X4.3694 Y4.8108
 X4.3692 Y4.8047
 X4.3583 Y4.8023
 X4.3448 Y4.8076
 X4.3298 Y4.8203
G0 Z0.1000
 X4.3354 Y4.8396
G1 Z0.0000
 X4.3181 Y4.8444
 X4.3065 Y4.8436
 X4.2949 Y4.8429
 X4.2776 Y4.8476
 X4.2658 Y4.8539
 X4.2676 Y4.8568
 X4.2767 Y4.8643
 X4.2786 Y4.8806
 X4.2739 Y4.8988
 X4.2630 Y4.9117
 X4.2544 Y4.9185
 X4.2565 Y4.9214
 X4.2645 Y4.9298
 X4.2677 Y4.9486
 X4.2658 Y4.9694
 X4.2585 Y4.9837
 X4.2389 Y4.9922
 X4.2081 Y4.9994
 X4.1772 Y5.0083
 X4.1691 Y5.0237
 X4.1644 Y5.0436
 X4.1531 Y5.0662
 X4.1444 Y5.0824
 X4.1494 Y5.0831
 X4.1573 Y5.0808
 X4.1512 Y5.0953
 X4.1453 Y5.1146
 X4.1463 Y5.1331
 X4.1475 Y5.1459
 X4.1422 Y5.1511
 X4.1343 Y5.1555
 X4.1328 Y5.1656
 X4.1369 Y5.1768
 X4.1462 Y5.1845
 X4.1559 Y5.1934
 X4.1599 Y5.2071
 X4.1627 Y5.2195
 X4.1695 Y5.2246
 X4.1749 Y5.2160
 X4.1731 Y5.1923
 Y5.1592
 X4.1838 Y5.1383
 X4.1997 Y5.1347
 X4.2154 Y5.1534
 X4.2216 Y5.1634
 X4.2194 Y5.1402
 X4.2143 Y5.1063
 X4.2421 Y5.1307
 X4.2624 Y5.1549
 X4.2702 Y5.1784
 X4.2737 Y5.1983
 X4.2820 Y5.2162
 X4.2920 Y5.2273
 X4.3010 Y5.2270
 X4.3031 Y5.2292
 X4.2993 Y5.2432
 X4.2878 Y5.2618
 X4.2719 Y5.2746
 X4.2571 Y5.2858
 X4.2484 Y5.2999
 X4.2388 Y5.3121
 X4.2194 Y5.3163
 X4.2064 Y5.3156
 X4.1998 Y5.3124
 X4.1981 Y5.3055
 X4.2004 Y5.2934
 X4.2012 Y5.2783
 X4.1967 Y5.2707
 X4.1893 Y5.2719
 X4.1819 Y5.2835
 X4.1810 Y5.2998
 X4.1880 Y5.3165
 X4.2003 Y5.3295
 X4.2152 Y5.3347
 X4.2283 Y5.3368
 X4.2344 Y5.3416
 X4.2367 Y5.3802
 X4.2255 Y5.3983
 X4.2161 Y5.4075
 X4.2229 Y5.4204
 X4.2283 Y5.4344
 X4.2259 Y5.4506
 X4.2173 Y5.4654
 X4.2036 Y5.4750
 X4.1966 Y5.4809
 X4.2034 Y5.4914
 X4.2115 Y5.5049
 X4.2149 Y5.5201
 X4.2170 Y5.5328
 X4.2237 Y5.5353
 X4.2356 Y5.5274
 X4.2533 Y5.5091
 X4.2783 Y5.4881
 X4.3057 Y5.4816
 X4.3205 Y5.4824
 X4.3292 Y5.4859
 X4.3332 Y5.4936
 X4.3343 Y5.5068
 X4.3346 Y5.5320
 X4.3510 Y5.5125
 X4.3605 Y5.4967
 X4.3644 Y5.4740
 X4.3631 Y5.4364
 X4.3570 Y5.3760
 X4.3474 Y5.3037
 X4.3359 Y5.2538
 X4.3187 Y5.2141
 X4.2918 Y5.1725
 X4.2516 Y5.1158
 X4.2676 Y5.0852
 X4.2806 Y5.0624
 X4.2896 Y5.0501
 X4.3032 Y5.0285
 X4.3213 Y4.9884
 X4.3374 Y4.9454
 X4.3452 Y4.9152
 X4.3481 Y4.8957
 X4.3528 Y4.8849
 X4.3595 Y4.8733
 X4.3647 Y4.8548
 X4.3668 Y4.8377
 X4.3640 Y4.8305
 X4.3526 Y4.8334
 X4.3354 Y4.8396
G0 Z0.1000
 X4.3948 Y4.8003
G1 Z0.0000
 X4.3975 Y4.8196
 X4.4043 Y4.8261
 X4.4102 Y4.8172
 X4.4113 Y4.8064
 X4.4076 Y4.7983
 X4.4013 Y4.7955
 X4.3948 Y4.8003
G0 Z0.1000
 X4.4531 Y4.6744
G1 Z0.0000
 X4.4555 Y4.6928
 X4.4610 Y4.6975
 X4.4645 Y4.6876
 Y4.6702
 X4.4616 Y4.6536
 X4.4566 Y4.6463
 X4.4542 Y4.6546
 X4.4531 Y4.6744
G0 Z0.1000
 X4.3890 Y4.6371
G1 Z0.0000
 X4.3930 Y4.6463
 X4.4027 Y4.6371
 X4.3987 Y4.6279
 X4.3890 Y4.6371
G0 Z0.1000
 X4.3823 Y4.6151
G1 Z0.0000
 X4.3998 Y4.6158
 X4.4038 Y4.6121
 X4.3943 Y4.6103
 X4.3835 Y4.6114
 X4.3823 Y4.6151
G0 Z0.1000
 X4.4328 Y4.6174
G1 Z0.0000
 X4.4396 Y4.6277
 X4.4388 Y4.6424
 X4.4360 Y4.6540
 X4.4429 Y4.6463
 X4.4523 Y4.6202
 X4.4371 Y4.6097
 X4.4272 Y4.6115
 X4.4328 Y4.6174
G0 Z0.1000
 X4.5488 Y4.6131
G1 Z0.0000
 X4.5290 Y4.6193
 X4.5187 Y4.6254
 X4.5157 Y4.6336
 X4.5182 Y4.6463
 X4.5229 Y4.6596
 X4.5255 Y4.6591
 X4.5340 Y4.6518
 X4.5533 Y4.6483
 X4.5803 Y4.6432
 X4.6043 Y4.6319
 X4.6184 Y4.6189
 X4.6163 Y4.6083
 X4.6066 Y4.6033
 X4.5954 Y4.6023
 X4.5778 Y4.6054
 X4.5488 Y4.6131
G0 Z0.1000
 X4.6497 Y4.5918
G1 Z0.0000
 X4.6504 Y4.6079
 X4.6611 Y4.6032
 X4.6677 Y4.5969
 X4.6782 Y4.5973
 X4.6874 Y4.5979
 X4.6913 Y4.5922
 X4.6859 Y4.5849
 X4.6735 Y4.5823
 X4.6596 Y4.5846
 X4.6497 Y4.5918
G0 Z0.1000
 X4.7027 Y4.5216
G1 Z0.0000
 X4.6818 Y4.5304
 X4.6730 Y4.5386
 X4.6788 Y4.5422
 X4.6928 Y4.5403
 X4.7098 Y4.5343
 X4.7248 Y4.5254
 X4.7401 Y4.5289
 X4.7439 Y4.5352
 X4.7456 Y4.5298
 X4.7369 Y4.5158
 X4.7027 Y4.5216
G0 Z0.1000
 X4.7646 Y4.4994
G1 Z0.0000
 X4.7687 Y4.5086
 X4.7784 Y4.4994
 X4.7743 Y4.4902
 X4.7646 Y4.4994
G0 Z0.1000
 X4.7465 Y4.5497
G1 Z0.0000
 X4.7406 Y4.5600
 X4.7446 Y4.5637
 X4.7599 Y4.5542
 X4.7623 Y4.5399
 X4.7559 Y4.5411
 X4.7465 Y4.5497
G0 Z0.1000
 X4.6290 Y4.6562
G1 Z0.0000
 X4.6018 Y4.6730
 X4.5906 Y4.6735
 X4.5876 Y4.6672
 X4.5767 Y4.6739
 X4.5678 Y4.6859
 X4.5741 Y4.6990
 X4.5832 Y4.7064
 X4.5887 Y4.7024
 X4.5949 Y4.6952
 X4.6050 Y4.6922
 X4.6142 Y4.6895
 X4.6180 Y4.6830
 X4.6253 Y4.6765
 X4.6427 Y4.6738
 X4.6599 Y4.6716
 X4.6569 Y4.6631
 X4.6518 Y4.6522
 X4.6618 Y4.6405
 X4.6714 Y4.6319
 X4.6725 Y4.6282
 X4.6576 Y4.6363
 X4.6290 Y4.6562
G0 Z0.1000
 X4.4422 Y4.8166
G1 Z0.0000
 X4.4359 Y4.8382
 X4.4297 Y4.8762
 X4.4267 Y4.9034
 Y4.9166
 X4.4305 Y4.9184
 X4.4389 Y4.9116
 X4.4501 Y4.8901
 X4.4514 Y4.8519
 X4.4475 Y4.8230
 X4.4422 Y4.8166
G0 Z0.1000
 X4.3862 Y4.8541
G1 Z0.0000
 X4.3853 Y4.8680
 X4.3984 Y4.8707
 X4.4073 Y4.8568
 X4.4000 Y4.8485
 X4.3862 Y4.8541
G0 Z0.1000
 X4.3657 Y4.9039
G1 Z0.0000
 X4.3647 Y4.9188
 X4.3731 Y4.9212
 X4.3843 Y4.9181
 X4.3940 Y4.9117
 X4.3982 Y4.9036
 X4.3941 Y4.8967
 X4.3848 Y4.8944
 X4.3740 Y4.8969
 X4.3657 Y4.9039
G0 Z0.1000
 X4.3561 Y4.9526
G1 Z0.0000
 X4.3534 Y4.9658
 X4.3562 Y4.9738
 X4.3631 Y4.9754
 X4.3727 Y4.9692
 X4.3788 Y4.9584
 X4.3728 Y4.9476
 X4.3631 Y4.9426
 X4.3561 Y4.9526
G0 Z0.1000
 X4.4073 Y4.9348
G1 Z0.0000
 X4.4164 Y4.9446
 X4.4256 Y4.9405
 X4.4164 Y4.9308
 X4.4073 Y4.9348
G0 Z0.1000
 X4.4074 Y4.9989
G1 Z0.0000
 X4.4035 Y5.0286
 X4.3943 Y5.0494
 X4.3833 Y5.0685
 X4.3783 Y5.0910
 X4.3797 Y5.1108
 X4.3881 Y5.1216
 X4.3965 Y5.1214
 X4.3952 Y5.1107
 X4.3963 Y5.0899
 X4.4074 Y5.0614
 X4.4245 Y5.0131
 X4.4164 Y4.9767
 X4.4095 Y4.9741
 X4.4074 Y4.9989
G0 Z0.1000
 X4.3431 Y5.1184
G1 Z0.0000
 X4.3458 Y5.1286
 X4.3523 Y5.1328
 X4.3615 Y5.1241
 X4.3523 Y5.1098
 X4.3458 Y5.1100
 X4.3431 Y5.1184
G0 Z0.1000
 X4.3615 Y5.1506
G1 Z0.0000
 X4.3707 Y5.1649
 X4.3771 Y5.1647
 X4.3798 Y5.1562
 X4.3771 Y5.1461
 X4.3707 Y5.1419
 X4.3615 Y5.1506
G0 Z0.1000
 X4.4073 Y5.1821
G1 Z0.0000
 X4.4099 Y5.1936
 X4.4164 Y5.2016
 X4.4229
 X4.4256 Y5.1935
 X4.4229 Y5.1821
 X4.4164 Y5.1740
 X4.4099 Y5.1741
 X4.4073 Y5.1821
G0 Z0.1000
 X4.3904 Y5.2062
G1 Z0.0000
 X4.3918 Y5.2190
 X4.3951 Y5.2177
 Y5.1947
 X4.3918 Y5.1934
 X4.3904 Y5.2062
G0 Z0.1000
 X4.3556 Y5.2291
G1 Z0.0000
 X4.3533 Y5.2436
 X4.3561 Y5.2571
 X4.3623 Y5.2658
 X4.3704 Y5.2659
 X4.3761 Y5.2553
 X4.3775 Y5.2382
 X4.3748 Y5.2223
 X4.3684 Y5.2153
 X4.3556 Y5.2291
G0 Z0.1000
 X4.3340 Y5.1932
G1 Z0.0000
 X4.3371 Y5.2019
 X4.3446 Y5.2038
 X4.3530 Y5.1996
 X4.3594 Y5.1896
 X4.3577 Y5.1819
 X4.3485 Y5.1787
 X4.3382 Y5.1829
 X4.3340 Y5.1932
G0 Z0.1000
 X4.3039 Y5.1292
G1 Z0.0000
 Y5.1373
 X4.3120 Y5.1487
 X4.3227 Y5.1566
 X4.3304 Y5.1570
 X4.3334 Y5.1504
 X4.3308 Y5.1377
 X4.3189 Y5.1243
 X4.3039 Y5.1292
G0 Z0.1000
 X4.2790 Y5.1098
G1 Z0.0000
 X4.2817 Y5.1196
 X4.2882 Y5.1236
 X4.2946 Y5.1196
 X4.2974 Y5.1098
 X4.2946 Y5.1001
 X4.2882 Y5.0960
 X4.2817 Y5.1001
 X4.2790 Y5.1098
G0 Z0.1000
 X4.3072 Y5.0539
G1 Z0.0000
 X4.3018 Y5.0660
 X4.3060 Y5.0731
 X4.3165 Y5.0734
 X4.3295 Y5.0652
 X4.3391 Y5.0540
 X4.3431 Y5.0462
 X4.3390 Y5.0413
 X4.3291 Y5.0414
 X4.3172 Y5.0460
 X4.3072 Y5.0539
G0 Z0.1000
 X4.3340 Y5.0096
G1 Z0.0000
 X4.3371 Y5.0183
 X4.3446 Y5.0203
 X4.3530 Y5.0160
 X4.3594 Y5.0060
 X4.3577 Y4.9983
 X4.3485 Y4.9951
 X4.3382 Y4.9993
 X4.3340 Y5.0096
G0 Z0.1000
 X4.2057 Y4.9306
G1 Z0.0000
 X4.2097 Y4.9353
 X4.2195 Y4.9341
 X4.2332 Y4.9252
 X4.2195 Y4.9216
 X4.2097 Y4.9243
 X4.2057 Y4.9306
G0 Z0.1000
 X4.1191 Y5.0403
G1 Z0.0000
 X4.1231 Y5.0546
 X4.1297 Y5.0545
 X4.1324 Y5.0461
 X4.1287 Y5.0324
 X4.1191 Y5.0403
G0 Z0.1000
 X4.0939 Y5.0960
G1 Z0.0000
 X4.0977 Y5.1155
 X4.1014 Y5.1236
 X4.1039 Y5.1155
 X4.1050 Y5.0960
 X4.1027 Y5.0766
 X4.0974 Y5.0685
 X4.0932 Y5.0766
 X4.0939 Y5.0960
G0 Z0.1000
 X4.0685 Y5.0277
G1 Z0.0000
 X4.0644 Y5.0463
 X4.0549 Y5.0645
 X4.0457 Y5.0823
 X4.0415 Y5.1017
 X4.0428 Y5.1172
 X4.0500 Y5.1236
 X4.0591 Y5.1144
 X4.0632 Y5.1079
 X4.0729 Y5.1052
 X4.0826 Y5.1025
 X4.0866 Y5.0960
 X4.0826 Y5.0896
 X4.0729 Y5.0869
 X4.0632 Y5.0842
 X4.0591 Y5.0777
 X4.0673 Y5.0685
 X4.0750 Y5.0632
 X4.0797 Y5.0503
 X4.0806 Y5.0348
 X4.0765 Y5.0213
 X4.0703 Y5.0157
 X4.0685 Y5.0277
G0 Z0.1000
 X4.0227 Y5.0454
G1 Z0.0000
 X4.0168 Y5.0556
 X4.0208 Y5.0593
 X4.0361 Y5.0498
 X4.0385 Y5.0355
 X4.0321 Y5.0367
 X4.0227 Y5.0454
G0 Z0.1000
 X3.9919 Y5.1587
G1 Z0.0000
 X3.9774 Y5.1801
 X3.9836 Y5.1876
 X3.9940 Y5.1803
 X4.0067 Y5.1646
 X4.0157 Y5.1490
 X4.0152 Y5.1419
 X4.0049 Y5.1469
 X3.9919 Y5.1587
G0 Z0.1000
 X4.1276 Y5.2559
G1 Z0.0000
 X4.1102 Y5.2733
 X4.0900 Y5.2796
 X4.0776 Y5.2802
 X4.0727 Y5.2833
 X4.0743 Y5.2914
 X4.0819 Y5.3068
 X4.0952 Y5.3241
 X4.1087 Y5.3289
 X4.1190 Y5.3217
 X4.1233 Y5.3026
 X4.1270 Y5.2885
 X4.1364 Y5.2770
 X4.1495 Y5.2700
 X4.1638 Y5.2695
 X4.1660 Y5.2660
 X4.1595 Y5.2549
 X4.1500 Y5.2423
 X4.1450 Y5.2352
 X4.1391 Y5.2400
 X4.1276 Y5.2559
G0 Z0.1000
 X4.1416 Y5.3071
G1 Z0.0000
 X4.1457 Y5.3163
 X4.1554 Y5.3071
 X4.1513 Y5.2980
 X4.1416 Y5.3071
G0 Z0.1000
 X4.3615 Y5.2930
G1 Z0.0000
 X4.3656 Y5.3027
 X4.3754 Y5.3102
 X4.3876 Y5.3137
 X4.3985 Y5.3115
 X4.4021 Y5.2950
 X4.3932 Y5.2860
 X4.3795 Y5.2824
 X4.3670 Y5.2847
 X4.3615 Y5.2930
G0 Z0.1000
 X4.4402 Y5.2733
G1 Z0.0000
 X4.4448 Y5.2996
 X4.4507 Y5.3347
 X4.4600 Y5.3663
 X4.4714 Y5.3773
 X4.4818 Y5.3676
 X4.4880 Y5.3370
 X4.4873 Y5.3085
 X4.4807 Y5.2980
 X4.4743 Y5.2936
 X4.4733 Y5.2832
 X4.4695 Y5.2705
 X4.4563 Y5.2608
 X4.4407 Y5.2583
 X4.4402 Y5.2733
G0 Z0.1000
 X4.3752 Y5.3439
G1 Z0.0000
 X4.3780 Y5.3504
 X4.3936 Y5.3530
 X4.4090 Y5.3504
 X4.4119 Y5.3439
 X4.3936 Y5.3347
 X4.3752 Y5.3439
G0 Z0.1000
 X4.3909 Y5.3868
G1 Z0.0000
 X4.3838 Y5.3933
 X4.3897 Y5.4044
 X4.4088 Y5.4166
 X4.4164 Y5.3989
 X4.4116 Y5.3827
 X4.3909 Y5.3868
G0 Z0.1000
 X4.4631 Y5.4081
G1 Z0.0000
 X4.4657 Y5.4232
 X4.4715 Y5.4402
 X4.4784 Y5.4540
 X4.4798 Y5.4402
 X4.4775 Y5.4232
 X4.4715 Y5.4081
 X4.4641 Y5.3990
 X4.4631 Y5.4081
G0 Z0.1000
 X4.4355 Y5.4303
G1 Z0.0000
 X4.4366 Y5.4411
 X4.4403 Y5.4423
 X4.4410 Y5.4248
 X4.4373 Y5.4208
 X4.4355 Y5.4303
G0 Z0.1000
 X4.3890 Y5.4494
G1 Z0.0000
 X4.3930 Y5.4592
 X4.4027 Y5.4632
 X4.4124 Y5.4592
 X4.4164 Y5.4494
 X4.4124 Y5.4397
 X4.4027 Y5.4356
 X4.3930 Y5.4397
 X4.3890 Y5.4494
G0 Z0.1000
 X4.3707 Y5.5355
G1 Z0.0000
 X4.3798 Y5.5504
 X4.3890 Y5.5469
 X4.3798 Y5.5320
 X4.3707 Y5.5355
G0 Z0.1000
 X4.4073 Y5.5630
G1 Z0.0000
 X4.4111 Y5.5719
 X4.4203 Y5.5818
 X4.4318 Y5.5880
 X4.4397 Y5.5819
 X4.4406 Y5.5721
 X4.4337 Y5.5633
 X4.4143 Y5.5555
 X4.4073 Y5.5630
G0 Z0.1000
 X4.4623 Y5.6089
G1 Z0.0000
 X4.4661 Y5.6229
 X4.4760 Y5.6284
 X4.4857 Y5.6261
 X4.4897 Y5.6203
 X4.4857 Y5.6113
 X4.4760 Y5.6009
 X4.4649 Y5.5952
 X4.4623 Y5.6089
G0 Z0.1000
 X4.4913 Y5.6528
G1 Z0.0000
 X4.4977 Y5.6646
 X4.5080 Y5.6694
 X4.5176 Y5.6667
 X4.5218 Y5.6560
 X4.5168 Y5.6455
 X4.5049 Y5.6392
 X4.4927 Y5.6405
 X4.4913 Y5.6528
G0 Z0.1000
 X4.5236 Y5.6894
G1 Z0.0000
 X4.5232 Y5.7034
 X4.5407 Y5.7110
 X4.5500 Y5.7070
 X4.5539 Y5.6972
 X4.5428 Y5.6840
 X4.5236 Y5.6894
G0 Z0.1000
 X4.5502 Y5.7279
G1 Z0.0000
 Y5.7371
 X4.5578 Y5.7471
 X4.5685 Y5.7524
 X4.5759 Y5.7492
 X4.5758 Y5.7400
 X4.5684 Y5.7299
 X4.5576 Y5.7247
 X4.5502 Y5.7279
G0 Z0.1000
 X4.5539 Y5.7747
G1 Z0.0000
 X4.5634 Y5.7887
 X4.5851 Y5.7881
 X4.5968 Y5.7810
 X4.5990 Y5.7739
 X4.5920 Y5.7683
 X4.5768 Y5.7661
 X4.5606 Y5.7686
 X4.5539 Y5.7747
G0 Z0.1000
 X4.5673 Y5.8206
G1 Z0.0000
 X4.5665 Y5.8315
 X4.5721 Y5.8379
 X4.5749 Y5.8438
 X4.5659 Y5.8535
 X4.5566 Y5.8635
 X4.5560 Y5.8715
 X4.5630 Y5.8754
 X4.5764 Y5.8730
 X4.5864 Y5.8638
 X4.5906 Y5.8490
 X4.5932 Y5.8358
 X4.5997 Y5.8304
 X4.6062 Y5.8265
 X4.6089 Y5.8171
 X4.6033 Y5.8078
 X4.5907 Y5.8056
 X4.5767 Y5.8100
 X4.5673 Y5.8206
G0 Z0.1000
 X4.5865 Y5.9119
G1 Z0.0000
 X4.5869 Y5.9189
 X4.5951 Y5.9251
 X4.6088 Y5.9295
 X4.6257 Y5.9310
 X4.6351 Y5.9284
 X4.6231 Y5.9172
 X4.5998 Y5.9045
 X4.5865 Y5.9119
G0 Z0.1000
 X4.5459 Y5.8934
G1 Z0.0000
 X4.5559 Y5.9035
 X4.5630 Y5.8969
 X4.5527 Y5.8866
 X4.5464 Y5.8872
 X4.5459 Y5.8934
G0 Z0.1000
 X4.3303 Y5.8625
G1 Z0.0000
 X4.3450 Y5.8787
 X4.3593 Y5.8854
 X4.3640 Y5.8799
 X4.3486 Y5.8625
 X4.3299 Y5.8463
 X4.3196 Y5.8395
 X4.3209 Y5.8463
 X4.3303 Y5.8625
G0 Z0.1000
 X4.2068 Y5.8308
G1 Z0.0000
 X4.2100 Y5.8527
 X4.2192 Y5.8722
 X4.2266 Y5.8811
 X4.2306 Y5.8818
 X4.2324 Y5.8730
 X4.2328 Y5.8533
 X4.2309 Y5.8288
 X4.2249 Y5.8294
 X4.2174 Y5.8362
 X4.2123 Y5.8248
 X4.2086 Y5.8163
 X4.2068 Y5.8308
G0 Z0.1000
 X4.2057 Y5.6783
G1 Z0.0000
 X4.2095 Y5.6921
 X4.2191 Y5.6841
 X4.2151 Y5.6698
 X4.2084 Y5.6699
 X4.2057 Y5.6783
G0 Z0.1000
 X3.8576 Y5.7242
G1 Z0.0000
 X3.8613 Y5.7380
 X3.8709 Y5.7300
 X3.8669 Y5.7157
 X3.8603 Y5.7158
 X3.8576 Y5.7242
G0 Z0.1000
 X3.8188 Y5.7217
G1 Z0.0000
 X3.8406 Y5.7274
 X3.8429 Y5.7229
 X3.8308 Y5.7177
 X3.8165 Y5.7157
 X3.8188 Y5.7217
G0 Z0.1000
 X3.8622 Y5.8026
G1 Z0.0000
 X3.8624 Y5.8092
 X3.8708 Y5.8120
 X3.8844 Y5.8083
 X3.8766 Y5.7986
 X3.8622 Y5.8026
G0 Z0.1000
 X3.8851 Y5.8395
G1 Z0.0000
 X3.8946 Y5.8525
 X3.9038 Y5.8579
 X3.9067 Y5.8525
 X3.9013 Y5.8395
 X3.8910 Y5.8266
 X3.8825 Y5.8211
 X3.8803 Y5.8266
 X3.8851 Y5.8395
G0 Z0.1000
 X4.0177 Y5.9959
G1 Z0.0000
 X4.0194 Y6.0022
 X4.0311 Y6.0047
 X4.0492 Y6.0013
 X4.0366 Y5.9924
 X4.0254 Y5.9913
 X4.0177 Y5.9959
G0 Z0.1000
 X4.2241 Y5.9586
G1 Z0.0000
 X4.2274 Y5.9709
 X4.2378 Y5.9713
 X4.2475 Y5.9639
 X4.2516 Y5.9532
 X4.2475 Y5.9443
 X4.2378 Y5.9405
 X4.2281 Y5.9458
 X4.2241 Y5.9586
G0 Z0.1000
 X4.3407 Y6.0133
G1 Z0.0000
 X4.3394 Y6.0267
 X4.3435 Y6.0322
 X4.3575 Y6.0214
 X4.3546 Y6.0033
 X4.3466 Y6.0015
 X4.3407 Y6.0133
G0 Z0.1000
 X4.4302 Y6.4453
G1 Z0.0000
 X4.4304 Y6.4518
 X4.4389 Y6.4545
 X4.4489 Y6.4518
 X4.4531 Y6.4453
 X4.4445 Y6.4361
 X4.4302 Y6.4453
G0 Z0.1000
 X4.3890 Y6.1057
G1 Z0.0000
 X4.3822 Y6.1128
 X4.3964 Y6.1147
 X4.4097 Y6.1121
 X4.4119 Y6.1057
 X4.4042 Y6.0974
 X4.3890 Y6.1057
G0 Z0.1000
 X4.4302 Y6.0137
G1 Z0.0000
 X4.4179 Y6.0202
 X4.4142 Y6.0263
 Y6.0458
 X4.3913 Y6.0464
 X4.3661 Y6.0403
 X4.3858 Y6.0604
 X4.4066 Y6.0733
 X4.4285 Y6.0756
 X4.4460 Y6.0679
 X4.4531 Y6.0511
 X4.4578 Y6.0378
 X4.4691 Y6.0302
 X4.4796 Y6.0258
 X4.4668 Y6.0169
 X4.4485 Y6.0119
 X4.4302 Y6.0137
G0 Z0.1000
 X4.5141 Y6.0202
G1 Z0.0000
 X4.5095 Y6.0299
 X4.5083 Y6.0431
 X4.5101 Y6.0547
 X4.5150 Y6.0596
 X4.5350 Y6.0505
 X4.5316 Y6.0301
 X4.5217 Y6.0206
 X4.5141 Y6.0202
G0 Z0.1000
 X4.5814 Y6.0598
G1 Z0.0000
 X4.5744 Y6.0670
 X4.5883 Y6.0689
 X4.6028 Y6.0663
 X4.6089 Y6.0598
 X4.6018 Y6.0512
 X4.5814 Y6.0598
G0 Z0.1000
 X4.6386 Y5.9519
G1 Z0.0000
 X4.6449 Y5.9601
 X4.6547 Y5.9634
 X4.6644 Y5.9601
 X4.6707 Y5.9519
 X4.6680 Y5.9437
 X4.6547 Y5.9405
 X4.6413 Y5.9437
 X4.6386 Y5.9519
G0 Z0.1000
 X4.6730 Y5.9766
G1 Z0.0000
 X4.6822 Y5.9864
 X4.6913 Y5.9823
 X4.6822 Y5.9726
 X4.6730 Y5.9766
G0 Z0.1000
 X4.7005 Y6.0781
G1 Z0.0000
 X4.7096 Y6.0873
 X4.7188 Y6.0781
 X4.7096 Y6.0690
 X4.7005 Y6.0781
G0 Z0.1000
 X5.0303 Y6.1608
G1 Z0.0000
 X5.0389 Y6.1699
 X5.0532 Y6.1608
 X5.0530 Y6.1543
 X5.0446 Y6.1516
 X5.0345 Y6.1543
 X5.0303 Y6.1608
G0 Z0.1000
 X5.0669 Y6.1831
G1 Z0.0000
 X5.0739 Y6.1941
 X5.0963 Y6.1975
 X5.1131 Y6.1955
 X5.1169 Y6.1903
 X5.1082 Y6.1830
 X5.0876 Y6.1749
 X5.0715 Y6.1733
 X5.0669 Y6.1831
G0 Z0.1000
 X5.1517 Y6.2038
G1 Z0.0000
 X5.1837
 X5.1856 Y6.2008
 X5.1677 Y6.1996
 X5.1498 Y6.2008
 X5.1517 Y6.2038
G0 Z0.1000
 X5.1151 Y6.7084
G1 Z0.0000
 X5.1036 Y6.7221
 X5.1098 Y6.7282
 X5.1237 Y6.7279
 X5.1385 Y6.7227
 X5.1472 Y6.7138
 X5.1405 Y6.7035
 X5.1151 Y6.7084
G0 Z0.1000
 X5.4151 Y6.3076
G1 Z0.0000
 X5.4192 Y6.3168
 X5.4288 Y6.3076
 X5.4248 Y6.2984
 X5.4151 Y6.3076
G0 Z0.1000
 X5.4747 Y6.1975
G1 Z0.0000
 X5.4912 Y6.2036
 X5.5018 Y6.2056
 X5.5046 Y6.2036
 X5.4976 Y6.1975
 X5.4701 Y6.1891
 X5.4644 Y6.1915
 X5.4747 Y6.1975
G0 Z0.1000
 X5.4655 Y6.1699
G1 Z0.0000
 X5.4695 Y6.1791
 X5.4792 Y6.1699
 X5.4752 Y6.1608
 X5.4655 Y6.1699
G0 Z0.1000
 X5.5542 Y6.1949
G1 Z0.0000
 X5.5375 Y6.2016
 X5.5286 Y6.2126
 X5.5283 Y6.2265
 X5.5371 Y6.2414
 X5.5500 Y6.2603
 X5.5612 Y6.2833
 X5.5720 Y6.3017
 X5.5847 Y6.3042
 X5.5946 Y6.3041
 X5.5984 Y6.3125
 X5.5949 Y6.3222
 X5.5869 Y6.3266
 X5.5844 Y6.3298
 X5.5947 Y6.3366
 X5.6127 Y6.3556
 X5.6289 Y6.3887
 X5.6372 Y6.4122
 X5.6411 Y6.4209
 X5.6414 Y6.4156
 X5.6390 Y6.3971
 X5.6381 Y6.3721
 X5.6437 Y6.3627
 X5.6504 Y6.3667
 X5.6533 Y6.3765
 X5.6572 Y6.3862
 X5.6664 Y6.3902
 X5.6740 Y6.3822
 X5.6756 Y6.3611
 X5.6713 Y6.3315
 X5.6615 Y6.2982
 X5.6544 Y6.2717
 X5.6497 Y6.2402
 X5.6444 Y6.2125
 X5.6364 Y6.1949
 X5.6288 Y6.1917
 X5.6248 Y6.2071
 X5.6229 Y6.2203
 X5.6195 Y6.2135
 X5.6143 Y6.2022
 X5.6076 Y6.1975
 X5.5876 Y6.1942
 X5.5728 Y6.1930
 X5.5542 Y6.1949
G0 Z0.1000
 X5.6716 Y6.2526
G1 Z0.0000
 X5.6808 Y6.2617
 X5.6899 Y6.2526
 X5.6808 Y6.2434
 X5.6716 Y6.2526
G0 Z0.1000
 X5.6875 Y6.2996
G1 Z0.0000
 X5.6970 Y6.3061
 X5.7039 Y6.3058
 X5.7027 Y6.3004
 X5.6927 Y6.2944
 X5.6818 Y6.2918
 X5.6875 Y6.2996
G0 Z0.1000
 X5.6991 Y6.3897
G1 Z0.0000
 X5.7083 Y6.3994
 X5.7174 Y6.3953
 X5.7083 Y6.3856
 X5.6991 Y6.3897
G0 Z0.1000
 X5.6350 Y6.4677
G1 Z0.0000
 X5.6376 Y6.4778
 X5.6441 Y6.4820
 X5.6533 Y6.4734
 X5.6441 Y6.4590
 X5.6376 Y6.4592
 X5.6350 Y6.4677
G0 Z0.1000
 X6.0839 Y6.8343
G1 Z0.0000
 X6.0907 Y6.8381
 X6.1068 Y6.8422
 X6.1230 Y6.8430
 X6.1297 Y6.8387
 X6.1230 Y6.8331
 X6.1068 Y6.8308
 X6.0907 Y6.8318
 X6.0839 Y6.8343
G0 Z0.1000
 X6.4000 Y6.7941
G1 Z0.0000
 X6.4148 Y6.8033
 X6.4183 Y6.7941
 X6.4035 Y6.7849
 X6.4000 Y6.7941
G0 Z0.1000
 X6.8123 Y6.8492
G1 Z0.0000
 X6.8124 Y6.8557
 X6.8209 Y6.8583
 X6.8309 Y6.8557
 X6.8352 Y6.8492
 X6.8266 Y6.8400
 X6.8123 Y6.8492
G0 Z0.1000
 X5.7090 Y6.2066
G1 Z0.0000
 X5.7117 Y6.2218
 X5.7174 Y6.2388
 X5.7244 Y6.2526
 X5.7258 Y6.2388
 X5.7235 Y6.2218
 X5.7174 Y6.2066
 X5.7101 Y6.1975
 X5.7090 Y6.2066
G0 Z0.1000
 X5.5994 Y6.1142
G1 Z0.0000
 X5.5946 Y6.1210
 X5.6067 Y6.1265
 X5.6202 Y6.1278
 X5.6258 Y6.1237
 X5.6174 Y6.1113
 X5.5994 Y6.1142
G0 Z0.1000
 X5.7722 Y5.7294
G1 Z0.0000
 X5.7637 Y5.7367
 X5.7640 Y5.7413
 X5.7717 Y5.7424
 X5.7855 Y5.7390
 X5.7954 Y5.7328
 X5.7943 Y5.7269
 X5.7722 Y5.7294
G0 Z0.1000
 X5.4701 Y5.8946
G1 Z0.0000
 X5.4741 Y5.9037
 X5.4838 Y5.8946
 X5.4798 Y5.8854
 X5.4701 Y5.8946
G0 Z0.1000
 X4.7803 Y5.9680
G1 Z0.0000
 X4.7860 Y5.9810
 X4.7932 Y5.9864
 X4.8008 Y5.9825
 X4.7957 Y5.9641
 X4.7891 Y5.9528
 X4.7828 Y5.9501
 X4.7791 Y5.9554
 X4.7803 Y5.9680
G0 Z0.1000
 X4.6639 Y5.8854
G1 Z0.0000
 X4.6675 Y5.8919
 X4.6764 Y5.8946
 X4.6887 Y5.8986
 X4.7005 Y5.9084
 X4.7113 Y5.9181
 X4.7214 Y5.9221
 X4.7202 Y5.9154
 X4.7042 Y5.8992
 X4.6733 Y5.8776
 X4.6639 Y5.8854
G0 Z0.1000
 X4.6193 Y5.8410
G1 Z0.0000
 X4.6121 Y5.8731
 X4.6098 Y5.8843
 X4.6175 Y5.8796
 X4.6242 Y5.8659
 X4.6246 Y5.8474
 X4.6214 Y5.8366
 X4.6193 Y5.8410
G0 Z0.1000
 X4.6480 Y5.8028
G1 Z0.0000
 X4.6508 Y5.8158
 X4.6556 Y5.8211
 X4.6601 Y5.8261
 X4.6603 Y5.8376
 X4.6567 Y5.8505
 X4.6503 Y5.8597
 X4.6480 Y5.8726
 X4.6579 Y5.8724
 X4.6726 Y5.8628
 X4.6849 Y5.8463
 X4.6815 Y5.8292
 X4.6768 Y5.8171
 X4.6784 Y5.8120
 X4.6792 Y5.8079
 X4.6730 Y5.7982
 X4.6539 Y5.7851
 X4.6480 Y5.8028
G0 Z0.1000
 X4.5814 Y5.6550
G1 Z0.0000
 X4.5881 Y5.6688
 X4.6043 Y5.6927
 X4.6204 Y5.7192
 X4.6272 Y5.7392
 X4.6312 Y5.7535
 X4.6409 Y5.7661
 X4.6521 Y5.7707
 X4.6546 Y5.7511
 X4.6478 Y5.7022
 X4.6307 Y5.6835
 X4.6217 Y5.6797
 X4.6180 Y5.6708
 X4.6126 Y5.6604
 X4.5997 Y5.6533
 X4.5868 Y5.6518
 X4.5814 Y5.6550
G0 Z0.1000
 X4.5253 Y5.5724
G1 Z0.0000
 X4.5323 Y5.5811
 X4.5316 Y5.5907
 X4.5300 Y5.5979
 X4.5350 Y5.6009
 X4.5418 Y5.6049
 X4.5447 Y5.6146
 X4.5474 Y5.6244
 X4.5541 Y5.6284
 X4.5591 Y5.6215
 X4.5572 Y5.6031
 X4.5436 Y5.5743
 X4.5218 Y5.5644
 X4.5190 Y5.5668
 X4.5253 Y5.5724
G0 Z0.1000
 X4.4897 Y5.5453
G1 Z0.0000
 X4.4989 Y5.5550
 X4.5081 Y5.5509
 X4.4989 Y5.5412
 X4.4897 Y5.5453
G0 Z0.1000
 X4.4722 Y5.5129
G1 Z0.0000
 X4.4733 Y5.5237
 X4.4770 Y5.5250
 X4.4777 Y5.5073
 X4.4740 Y5.5034
 X4.4722 Y5.5129
G0 Z0.1000
 X4.4715 Y5.4723
G1 Z0.0000
 X4.4756 Y5.4789
 X4.4857 Y5.4816
 X4.4941 Y5.4789
 X4.4944 Y5.4723
 X4.4800 Y5.4632
 X4.4715 Y5.4723
G0 Z0.1000
 X4.4351 Y5.4855
G1 Z0.0000
 X4.4284 Y5.5057
 X4.4256 Y5.5195
 X4.4295 Y5.5302
 X4.4390 Y5.5418
 X4.4507 Y5.5512
 X4.4616 Y5.5550
 X4.4632 Y5.5496
 X4.4533 Y5.5368
 X4.4404 Y5.5174
 X4.4444 Y5.4942
 X4.4495 Y5.4756
 X4.4491 Y5.4652
 X4.4430 Y5.4693
 X4.4351 Y5.4855
G0 Z0.1000
 X4.3921 Y5.4957
G1 Z0.0000
 X4.3899 Y5.5083
 X4.3931 Y5.5159
 X4.3997 Y5.5165
 X4.4077 Y5.5088
 X4.4159 Y5.4886
 X4.4070 Y5.4816
 X4.3987 Y5.4857
 X4.3921 Y5.4957
G0 Z0.1000
 X4.2630 Y5.5335
G1 Z0.0000
 X4.2521 Y5.5470
 X4.2699 Y5.5550
 X4.2840 Y5.5601
 X4.2882 Y5.5774
 X4.2850 Y5.5964
 X4.2767 Y5.6059
 X4.2650 Y5.6054
 X4.2516 Y5.5940
 X4.2380 Y5.5820
 X4.2271 Y5.5821
 X4.2199 Y5.5940
 X4.2168 Y5.6169
 X4.2204 Y5.6415
 X4.2326 Y5.6556
 X4.2441 Y5.6679
 X4.2447 Y5.6874
 X4.2399 Y5.7034
 X4.2345 Y5.7096
 X4.2121 Y5.7137
 X4.2055 Y5.7310
 X4.2142 Y5.7575
 X4.2383 Y5.7890
 X4.2551 Y5.8052
 X4.2670 Y5.8139
 X4.2761 Y5.8156
 X4.2841 Y5.8116
 X4.2989 Y5.8053
 X4.3160 Y5.8056
 X4.3300 Y5.8060
 X4.3292 Y5.7929
 X4.3279 Y5.7804
 X4.3326 Y5.7752
 X4.3455 Y5.7867
 X4.3594 Y5.7950
 X4.3898 Y5.7982
 X4.4212 Y5.8013
 X4.4302 Y5.8120
 X4.4236 Y5.8229
 X4.4083 Y5.8285
 X4.3911 Y5.8278
 X4.3787 Y5.8197
 X4.3727 Y5.8129
 X4.3708 Y5.8186
 X4.3665 Y5.8250
 X4.3556 Y5.8239
 X4.3491 Y5.8273
 X4.3643 Y5.8533
 X4.3797 Y5.8805
 X4.3831 Y5.8967
 X4.3835 Y5.9071
 X4.3916 Y5.9204
 X4.4031 Y5.9376
 X4.4116 Y5.9570
 X4.4192 Y5.9715
 X4.4299 Y5.9683
 X4.4402 Y5.9646
 X4.4466 Y5.9770
 X4.4549 Y5.9901
 X4.4683 Y5.9952
 X4.4804 Y5.9932
 X4.4691 Y5.9828
 X4.4578 Y5.9701
 X4.4531 Y5.9565
 X4.4554 Y5.9497
 X4.4634 Y5.9456
 X4.4788 Y5.9437
 X4.5035
 X4.5363 Y5.9456
 X4.5447 Y5.9481
 X4.5359 Y5.9599
 X4.5493 Y5.9680
 X4.5590 Y5.9703
 X4.5630 Y5.9757
 X4.5724 Y5.9815
 X4.5951 Y5.9846
 X4.6228 Y5.9791
 X4.6244 Y5.9635
 X4.6033 Y5.9439
 X4.5630 Y5.9265
 X4.5378 Y5.9173
 X4.5259 Y5.9056
 X4.5257 Y5.8873
 X4.5355 Y5.8581
 X4.5449 Y5.8324
 X4.5482 Y5.8141
 X4.5454 Y5.7962
 X4.5366 Y5.7711
 X4.5202 Y5.7351
 X4.5036 Y5.7086
 X4.4887 Y5.6891
 X4.4768 Y5.6700
 X4.4635 Y5.6513
 X4.4430 Y5.6296
 X4.4176 Y5.6068
 X4.3899 Y5.5848
 X4.3623 Y5.5654
 X4.3374 Y5.5505
 X4.3177 Y5.5420
 X4.3057 Y5.5417
 X4.2929 Y5.5367
 X4.2824 Y5.5286
 X4.2630 Y5.5335
G0 Z0.1000
 X4.1637 Y5.4758
G1 Z0.0000
 X4.1565 Y5.4842
 X4.1466 Y5.4850
 X4.1370 Y5.4892
 X4.1303 Y5.5041
 X4.1286 Y5.5214
 X4.1341 Y5.5330
 X4.1382 Y5.5418
 X4.1368 Y5.5558
 X4.1361 Y5.5699
 X4.1443 Y5.5780
 X4.1598 Y5.5794
 X4.1815 Y5.5738
 X4.1950 Y5.5681
 X4.2007 Y5.5627
 X4.1995 Y5.5551
 X4.1923 Y5.5429
 X4.1841 Y5.5259
 X4.1844 Y5.5152
 X4.1795 Y5.5091
 X4.1731 Y5.5050
 X4.1779 Y5.4913
 X4.1828 Y5.4765
 X4.1782 Y5.4677
 X4.1701 Y5.4678
 X4.1637 Y5.4758
G0 Z0.1000
 X4.0917 Y5.4657
G1 Z0.0000
 X4.0818 Y5.4904
 X4.0888 Y5.5231
 X4.1021 Y5.5545
 X4.1125 Y5.5621
 X4.1185 Y5.5466
 X4.1188 Y5.5087
 X4.1151 Y5.4675
 X4.1109 Y5.4477
 X4.1034 Y5.4512
 X4.0917 Y5.4657
G0 Z0.1000
 X3.6103 Y5.3800
G1 Z0.0000
 X3.6194 Y5.3943
 X3.6259 Y5.3941
 X3.6286 Y5.3857
 X3.6259 Y5.3757
 X3.6194 Y5.3714
 X3.6103 Y5.3800
G0 Z0.1000
 X2.8429 Y6.1120
G1 Z0.0000
 X2.8750
 X2.8769 Y6.1091
 X2.8589 Y6.1078
 X2.8410 Y6.1091
 X2.8429 Y6.1120
G0 Z0.1000
 X2.6116 Y6.1791
G1 Z0.0000
 X2.6208 Y6.1883
 X2.6299 Y6.1791
 X2.6208 Y6.1699
 X2.6116 Y6.1791
G0 Z0.1000
 X0.9589 Y7.7161
G1 Z0.0000
 X0.9724 Y7.7104
 X0.9840 Y7.6973
 X0.9947 Y7.6760
 X0.9966 Y7.6574
 X0.9970 Y7.6453
 X1.0068 Y7.6420
 X1.0141 Y7.6380
 X1.0234 Y7.6261
 X1.0340 Y7.6083
 X1.0447 Y7.5869
 X1.0548 Y7.5635
 X1.0633 Y7.5403
 X1.0692 Y7.5191
 X1.0717 Y7.5022
 X1.0755 Y7.4868
 X1.0861 Y7.4858
 X1.0965 Y7.4855
 X1.0999 Y7.4737
 X1.1032 Y7.4578
 X1.1114 Y7.4441
 X1.1195 Y7.4318
 X1.1228 Y7.4190
 X1.1262 Y7.4087
 X1.1343 Y7.4022
 X1.1424 Y7.4080
 X1.1458 Y7.4259
 X1.1439 Y7.4463
 X1.1366 Y7.4595
 X1.1300 Y7.4700
 X1.1274 Y7.4871
 X1.1247 Y7.5042
 X1.1182 Y7.5146
 X1.1117 Y7.5156
 X1.1091 Y7.5100
 X1.1012 Y7.5046
 X1.0963 Y7.5191
 X1.0959 Y7.5469
 X1.0918 Y7.5909
 X1.0763 Y7.6458
 X1.0606 Y7.6913
 X1.0541 Y7.7142
 X1.0857 Y7.7161
G0 Z0.1000
 X2.1409
G1 Z0.0000
 X2.1629 Y7.7137
 X2.1770 Y7.7096
 X2.1841 Y7.7043
 X2.1948 Y7.6905
 X2.1993 Y7.6808
 X2.2074 Y7.6693
 X2.2268 Y7.6509
 X2.2462 Y7.6308
 X2.2543 Y7.6151
 X2.2603 Y7.6030
 X2.2749 Y7.5916
 X2.2916 Y7.5804
 X2.3028 Y7.5684
 X2.3119 Y7.5596
 X2.3235 Y7.5559
 X2.3329 Y7.5518
 X2.3367 Y7.5418
 X2.3408 Y7.5304
 X2.3505 Y7.5225
 X2.3646 Y7.5096
 X2.3791 Y7.4861
 X2.3930 Y7.4641
 X2.4060 Y7.4549
 X2.4181 Y7.4502
 X2.4301 Y7.4389
 X2.4480 Y7.4204
 X2.4742 Y7.3983
 X2.5075 Y7.3712
 X2.5429 Y7.3404
 X2.5749 Y7.3144
 X2.6007 Y7.2984
 X2.6140 Y7.2897
 X2.6164 Y7.2809
 X2.6223 Y7.2649
 X2.6438 Y7.2414
 X2.6693 Y7.2210
 X2.6877 Y7.2142
 X2.6898 Y7.2077
 X2.6967 Y7.1904
 X2.7212 Y7.1616
 X2.7473 Y7.1368
 X2.7582 Y7.1291
 X2.7620 Y7.1284
 X2.7725 Y7.1206
 X2.7877 Y7.1071
 X2.8058 Y7.0896
 X2.8361 Y7.0607
 X2.8663 Y7.0355
 X2.8815 Y7.0178
 X2.8888 Y6.9983
 X2.8920 Y6.9851
 X2.8973 Y6.9781
 X2.9025 Y6.9789
 X2.9048 Y6.9889
 X2.9106 Y6.9909
 X2.9249 Y6.9799
 X2.9372 Y6.9639
 X2.9385 Y6.9534
 X2.9293 Y6.9517
 X2.9091 Y6.9520
 X2.8808 Y6.9540
 X2.8474 Y6.9577
 X2.8039 Y6.9633
 X2.7713 Y6.9673
 X2.7480 Y6.9696
 X2.7325 Y6.9704
 X2.7230 Y6.9695
 X2.7179 Y6.9670
 X2.7156 Y6.9628
 X2.7142 Y6.9570
 X2.7157 Y6.9453
 X2.7251 Y6.9409
 X2.7392 Y6.9354
 X2.7562 Y6.9222
 X2.7705 Y6.9064
 X2.7765 Y6.8933
 X2.7674 Y6.8858
 X2.7609 Y6.8899
 X2.7582 Y6.8996
 X2.7567 Y6.9098
 X2.7510 Y6.9122
 X2.7389 Y6.9067
 X2.7184 Y6.8927
 X2.6961 Y6.8782
 X2.6834 Y6.8721
 X2.6704 Y6.8652
 X2.6766 Y6.8595
 X2.7026 Y6.8586
 X2.7341 Y6.8619
 X2.7571 Y6.8689
 X2.7790 Y6.8739
 X2.8153 Y6.8625
 X2.8417 Y6.8482
 X2.8468 Y6.8361
 X2.8304 Y6.8261
 X2.7925 Y6.8178
 X2.7636 Y6.8124
 X2.7481 Y6.8054
 X2.7433 Y6.7943
 X2.7462 Y6.7764
 X2.7555 Y6.7606
 X2.7775 Y6.7607
 X2.8045 Y6.7611
 X2.8320 Y6.7532
 X2.8557 Y6.7388
 X2.8714 Y6.7198
 X2.8870 Y6.7004
 X2.9093 Y6.6848
 X2.9367 Y6.6767
 X2.9691 Y6.6737
 X2.9990 Y6.6761
 X3.0191 Y6.6837
 X3.0271 Y6.6863
 X3.0285 Y6.6731
 X3.0215 Y6.6569
 X3.0065 Y6.6458
 X2.9758 Y6.6411
 X2.9143 Y6.6364
 X2.8304 Y6.6323
 X2.7325 Y6.6293
 X2.7190 Y6.6266
 X2.7164 Y6.6207
 X2.7160 Y6.6131
 X2.7074 Y6.6074
 X2.6943 Y6.6050
 X2.6803 Y6.6072
 X2.6706 Y6.6152
 X2.6666 Y6.6271
 X2.6642 Y6.6364
 X2.6556 Y6.6307
 X2.6430 Y6.6229
 X2.6281 Y6.6197
 X2.6164 Y6.6168
 X2.6116 Y6.6099
 X2.6068 Y6.5955
 X2.5936 Y6.5842
 X2.5742 Y6.5771
 X2.5503 Y6.5752
 X2.5181 Y6.5732
 X2.4896 Y6.5662
 X2.4454 Y6.5564
 X2.4146 Y6.5738
 X2.4006 Y6.5868
 X2.3903 Y6.5922
 X2.3772 Y6.5857
 X2.3612 Y6.5705
 X2.3482 Y6.5531
 X2.3440 Y6.5400
 X2.3359 Y6.5261
 X2.3122 Y6.5129
 X2.2817 Y6.5042
 X2.2538 Y6.5037
 X2.2313 Y6.5048
 X2.2209 Y6.4957
 X2.2116 Y6.4869
 X2.1938 Y6.4876
 X2.1782 Y6.4889
 X2.1718 Y6.4843
 X2.1652 Y6.4793
 X2.1492 Y6.4797
 X2.1288 Y6.4788
 X2.1119 Y6.4692
 X2.0990 Y6.4602
 X2.0888 Y6.4595
 X2.0737 Y6.4551
 X2.0491 Y6.4394
 X2.0261 Y6.4204
 X2.0161 Y6.4063
 X2.0256 Y6.4006
 X2.0473 Y6.3997
 X2.0713 Y6.4032
 X2.0876 Y6.4104
 X2.0953 Y6.4164
 X2.0985 Y6.4151
 X2.1086 Y6.4146
 X2.1329 Y6.4223
 X2.1652 Y6.4311
 X2.1947 Y6.4335
 X2.2170 Y6.4275
 X2.2216 Y6.4166
 X2.2092 Y6.4033
 X2.1809 Y6.3902
 X2.1476 Y6.3778
 X2.1259 Y6.3673
 X2.1014 Y6.3577
 X2.0644 Y6.3485
 X2.0307 Y6.3431
 X2.0161 Y6.3447
 X2.0248 Y6.3519
 X2.0459 Y6.3604
 X2.0619 Y6.3659
 X2.0655 Y6.3689
 X2.0550 Y6.3702
 X2.0290 Y6.3709
 X1.9829 Y6.3676
 X1.9374 Y6.3582
 X1.8924 Y6.3485
 X1.8475 Y6.3444
 X1.8221 Y6.3456
 X1.8027 Y6.3511
 X1.7833 Y6.3637
 X1.7578 Y6.3864
 X1.7323 Y6.4093
 X1.7144 Y6.4211
 X1.6981 Y6.4246
 X1.6777 Y6.4224
 X1.6451 Y6.4216
 X1.6222 Y6.4378
 X1.6055 Y6.4589
 X1.5939 Y6.4799
 X1.5804 Y6.4967
 X1.5576 Y6.5064
 X1.5300 Y6.5181
 X1.5032 Y6.5384
 X1.4842 Y6.5557
 X1.4705 Y6.5631
 X1.4592 Y6.5613
 X1.4481 Y6.5508
 X1.4300 Y6.5409
 X1.4028 Y6.5375
 X1.3741 Y6.5408
 X1.3513 Y6.5506
 X1.3317 Y6.5613
 X1.3135 Y6.5636
 X1.2982 Y6.5578
 X1.2875 Y6.5439
 X1.2812 Y6.5334
 X1.2721 Y6.5273
 X1.2573 Y6.5248
 X1.2339 Y6.5249
 X1.1997 Y6.5287
 X1.1801 Y6.5356
 X1.1698 Y6.5408
 X1.1585 Y6.5396
 X1.1494 Y6.5333
 X1.1457 Y6.5229
 X1.1531 Y6.5135
 X1.1709 Y6.5079
 X1.1879 Y6.5031
 X1.1933 Y6.4958
 X1.1808 Y6.4879
 X1.1481 Y6.4950
 X1.1272 Y6.4949
 X1.1051 Y6.4771
 X1.0863 Y6.4617
 X1.0730 Y6.4587
 X1.0617 Y6.4604
 X1.0482 Y6.4561
 X1.0431 Y6.4486
 X1.0670 Y6.4436
 X1.0989 Y6.4448
 X1.1268 Y6.4555
 X1.1413 Y6.4640
 X1.1485 Y6.4667
 X1.1502 Y6.4633
 X1.1482 Y6.4537
 X1.1422 Y6.4413
 X1.1344 Y6.4361
 X1.1292 Y6.4294
 X1.1296 Y6.4131
 X1.1292 Y6.3945
 X1.1124 Y6.3902
 X1.0971 Y6.3874
 X1.0908 Y6.3806
 X1.0941 Y6.3746
 X1.1022 Y6.3734
 X1.1215
 X1.1415 Y6.3675
 X1.1578 Y6.3576
 X1.1664 Y6.3453
 X1.1814 Y6.3277
 X1.2110 Y6.3100
 X1.2431 Y6.2929
 X1.2638 Y6.2767
 X1.2859 Y6.2653
 X1.3100 Y6.2733
 X1.3295 Y6.2961
 X1.3378 Y6.3288
 X1.3416 Y6.3486
 X1.3550 Y6.3518
 X1.3713 Y6.3534
 X1.3867 Y6.3612
 X1.4006 Y6.3685
 X1.4156 Y6.3701
 X1.4285 Y6.3663
 X1.4361 Y6.3573
 X1.4320 Y6.3438
 X1.4176 Y6.3252
 X1.3990 Y6.3036
 X1.3852 Y6.2827
 X1.3739 Y6.2697
 X1.3619 Y6.2672
 X1.3486 Y6.2629
 X1.3346 Y6.2427
 X1.3268 Y6.2257
 X1.3250 Y6.2145
 X1.3299 Y6.2048
 X1.3422 Y6.1925
 X1.3594 Y6.1795
 X1.3696 Y6.1770
 X1.3733 Y6.1762
 X1.3748 Y6.1669
 X1.3811 Y6.1552
 X1.4020 Y6.1516
 X1.4212 Y6.1483
 X1.4235 Y6.1386
 X1.4089 Y6.1226
 X1.3774 Y6.1004
 X1.3523 Y6.0814
 X1.3491 Y6.0714
 X1.3669 Y6.0711
 X1.4042 Y6.0814
 X1.4430 Y6.0928
 X1.4804 Y6.1011
 X1.5165 Y6.1094
 X1.5557 Y6.1215
 X1.5916 Y6.1353
 X1.6183 Y6.1488
 X1.6442 Y6.1588
 X1.6948 Y6.1739
 X1.7618 Y6.1921
 X1.8369 Y6.2113
 X1.9116 Y6.2293
 X1.9776 Y6.2441
 X2.0266 Y6.2536
 X2.0502 Y6.2559
 X2.0653 Y6.2553
 X2.0751 Y6.2609
 X2.0844 Y6.2680
 X2.0980 Y6.2709
 X2.1128 Y6.2747
 X2.1254 Y6.2840
 X2.1443 Y6.2949
 X2.1746 Y6.3029
 X2.2126 Y6.3096
 X2.2338 Y6.3151
 X2.2405 Y6.3206
 X2.2349 Y6.3268
 X2.2286 Y6.3329
 X2.2314 Y6.3361
 X2.2704 Y6.3426
 X2.2978 Y6.3494
 X2.3130 Y6.3512
 X2.3184 Y6.3448
 X2.3234 Y6.3384
 X2.3367 Y6.3397
 X2.3556 Y6.3424
 X2.3734 Y6.3393
 X2.3866 Y6.3317
 X2.3917 Y6.3208
 X2.4004 Y6.3108
 X2.4284 Y6.3076
 X2.4520 Y6.3109
 X2.4648 Y6.3190
 X2.4647 Y6.3292
 X2.4500 Y6.3390
 X2.4361 Y6.3465
 X2.4417 Y6.3493
 X2.4624 Y6.3474
 X2.4934 Y6.3405
 X2.5236 Y6.3309
 X2.5269 Y6.3266
 X2.5112 Y6.3167
 X2.5237 Y6.3021
 X2.5344 Y6.2922
 X2.5421 Y6.2754
 X2.5546 Y6.2541
 X2.5772 Y6.2332
 X2.5992 Y6.2180
 X2.6103 Y6.2102
 X2.6059 Y6.1958
 X2.5991 Y6.1810
 X2.5960 Y6.1667
 X2.5971 Y6.1559
 X2.6025 Y6.1516
 X2.6106 Y6.1493
 X2.6108 Y6.1436
 X2.6039 Y6.1361
 X2.5910 Y6.1285
 X2.5769 Y6.1195
 X2.5720 Y6.1103
 X2.5687 Y6.1003
 X2.5587 Y6.0927
 X2.5475 Y6.0900
 X2.5404 Y6.0948
 X2.5322 Y6.0990
 X2.5141 Y6.0902
 X2.4894 Y6.0754
 X2.4621 Y6.0606
 X2.4372 Y6.0441
 X2.4328 Y6.0307
 X2.4484 Y6.0215
 X2.4834 Y6.0179
 X2.5257 Y6.0194
 X2.5566 Y6.0240
 X2.5690 Y6.0298
 X2.5429 Y6.0325
 X2.5062 Y6.0343
 X2.5429 Y6.0419
 X2.5831 Y6.0489
 X2.6285 Y6.0549
 X2.6676 Y6.0610
 X2.6926 Y6.0682
 X2.7458 Y6.0839
 X2.8407 Y6.0954
 X2.8892 Y6.1021
 X2.9093 Y6.1103
 X2.9214 Y6.1169
 X2.9506 Y6.1199
 X2.9851 Y6.1231
 X3.0101 Y6.1301
 X3.0311 Y6.1385
 X3.0559 Y6.1450
 X3.0834 Y6.1521
 X3.1109 Y6.1616
 X3.1316 Y6.1700
 X3.1430 Y6.1742
 X3.1556 Y6.1782
 X3.1796 Y6.1864
 X3.2146 Y6.1940
 X3.2707 Y6.2012
 X3.3413 Y6.2076
 X3.4197 Y6.2129
 X3.4993 Y6.2166
 X3.5735 Y6.2185
 X3.6355 Y6.2180
 X3.6789 Y6.2149
 X3.7204 Y6.2093
 X3.7431 Y6.2068
 X3.7499 Y6.1995
 X3.7536 Y6.1823
 X3.7528 Y6.1669
 X3.7473 Y6.1706
 X3.7398 Y6.1777
 X3.7335 Y6.1674
 X3.7194 Y6.1521
 X3.7110 Y6.1654
 X3.7056 Y6.1751
 X3.6927 Y6.1791
 X3.6778 Y6.1723
 X3.6744 Y6.1424
 X3.6778 Y6.1126
 X3.6927 Y6.1057
 X3.7110 Y6.1003
 X3.7293 Y6.0873
 X3.7498 Y6.0738
 X3.7715 Y6.0687
 X3.7875 Y6.0724
 X3.7914 Y6.0850
 X3.7950 Y6.0981
 X3.8247 Y6.1011
 X3.8530 Y6.1037
 X3.8685 Y6.1100
 X3.8813 Y6.1125
 X3.8824 Y6.1040
 X3.8763 Y6.0923
 X3.8637 Y6.0838
 X3.8486 Y6.0872
 X3.8327 Y6.0903
 X3.8175 Y6.0794
 X3.8032 Y6.0577
 X3.8163 Y6.0565
 X3.8301 Y6.0566
 X3.8265 Y6.0430
 X3.8180 Y6.0257
 X3.8082 Y6.0110
 X3.8003 Y6.0047
 X3.7926 Y6.0008
 X3.7779 Y5.9899
 X3.7584 Y5.9738
 X3.7361 Y5.9542
 X3.7139 Y5.9347
 X3.6945 Y5.9186
 X3.6801 Y5.9078
 X3.6728 Y5.9037
 X3.6652 Y5.8912
 X3.6553 Y5.8739
 X3.6317 Y5.8499
 X3.6051 Y5.8246
 X3.5882 Y5.8039
 X3.5789 Y5.7904
 X3.5612 Y5.7664
 X3.5377 Y5.7354
 X3.5106 Y5.7006
 X3.4838 Y5.6657
 X3.4608 Y5.6341
 X3.4438 Y5.6094
 X3.4356 Y5.5949
 X3.4282 Y5.5801
 X3.4207 Y5.5720
 X3.4118 Y5.5622
 X3.3944 Y5.5389
 X3.3718 Y5.5067
 X3.3467 Y5.4702
 X3.3225 Y5.4338
 X3.3021 Y5.4022
 X3.2887 Y5.3799
 X3.2853 Y5.3714
 X3.2824 Y5.3627
 X3.2681 Y5.3416
 X3.2416 Y5.3005
 X3.2146 Y5.2479
 X3.1889 Y5.1877
 X3.1661 Y5.1236
 X3.1557 Y5.0920
 X3.1458 Y5.0635
 X3.1376 Y5.0414
 X3.1323 Y5.0286
 X3.1232 Y5.0015
 X3.1140 Y4.9598
 X3.1052 Y4.9123
 X3.0974 Y4.8712
 X3.0895 Y4.8267
 X3.0807 Y4.7706
 X3.0724 Y4.7137
 X3.0666 Y4.6669
 X3.0660 Y4.6377
 X3.0729 Y4.6279
 X3.0813 Y4.6423
 X3.0860 Y4.6807
 X3.0891 Y4.7220
 X3.0938 Y4.7480
 X3.1010 Y4.7617
 X3.1115 Y4.7656
 X3.1208 Y4.7689
 X3.1247 Y4.7766
 X3.1269 Y4.7829
 X3.1350 Y4.7772
 X3.1405 Y4.7651
 X3.1382 Y4.7502
 X3.1336 Y4.7350
 X3.1328 Y4.7220
 X3.1298 Y4.7139
 X3.1201 Y4.7106
 X3.1098 Y4.7053
 X3.1074 Y4.6899
 X3.1082 Y4.6662
 X3.1077 Y4.6383
 X3.1063 Y4.6215
 X3.1024 Y4.6127
 X3.0941 Y4.6101
 X3.0792 Y4.6115
 X3.0605 Y4.6119
 X3.0493 Y4.6048
 X3.0437 Y4.5880
 X3.0422 Y4.5591
 X3.0437 Y4.5316
 X3.0484 Y4.5139
 X3.0564 Y4.5056
 X3.0681 Y4.5063
 X3.0785 Y4.5084
 X3.0712 Y4.4970
 X3.0641 Y4.4837
 X3.0645 Y4.4729
 X3.0673 Y4.4623
 X3.0709 Y4.4398
 X3.0748 Y4.4089
 X3.0787 Y4.3727
 X3.0829 Y4.3352
 X3.0882 Y4.3008
 X3.0938 Y4.2731
 X3.0990 Y4.2560
 X3.1105 Y4.2305
 X3.1167 Y4.2525
 X3.1214 Y4.2539
 X3.1237 Y4.2172
 X3.1271 Y4.1747
 X3.1353 Y4.1621
 X3.1445 Y4.1570
 X3.1517 Y4.1414
 X3.1598 Y4.1253
 X3.1709 Y4.1185
 X3.1808 Y4.1281
 X3.1813 Y4.1640
 X3.1766 Y4.2007
 X3.1698 Y4.2253
 X3.1638 Y4.2516
 X3.1613 Y4.2923
 X3.1642 Y4.3326
 X3.1750 Y4.3434
 X3.1847 Y4.3385
 X3.1888 Y4.3266
 X3.1962 Y4.3109
 X3.2140 Y4.2968
 X3.2343 Y4.2848
 X3.2460 Y4.2724
 X3.2514 Y4.2558
 X3.2528 Y4.2310
 X3.2502 Y4.2050
 X3.2441 Y4.1975
 X3.2372 Y4.2079
 X3.2321 Y4.2355
 X3.2302 Y4.2546
 X3.2289 Y4.2593
 X3.2280 Y4.2490
 X3.2271 Y4.2228
 X3.2267 Y4.1942
 X3.2291 Y4.1779
 X3.2358 Y4.1697
 X3.2483 Y4.1652
 X3.2645 Y4.1580
 X3.2713 Y4.1488
 X3.2772 Y4.1281
 X3.2914 Y4.0934
 X3.3116 Y4.0487
 X3.3279 Y4.0698
 X3.3441 Y4.0910
 X3.3443 Y4.0711
 X3.3411 Y4.0558
 X3.3331 Y4.0470
 X3.3262 Y4.0399
 X3.3331 Y4.0234
 X3.3411 Y4.0056
 X3.3446 Y3.9901
 X3.3481 Y3.9804
 X3.3569 Y3.9762
 X3.3704 Y3.9709
 X3.3857 Y3.9579
 X3.4026 Y3.9428
 X3.4125 Y3.9448
 X3.4167 Y3.9661
 X3.4165 Y4.0089
 X3.4159 Y4.0422
 X3.4173 Y4.0649
 X3.4209 Y4.0790
 X3.4269 Y4.0863
 X3.4385 Y4.0910
 X3.4483 Y4.0878
 X3.4580 Y4.0750
 X3.4693 Y4.0513
 X3.4772 Y4.0340
 X3.4826 Y4.0263
 X3.4868 Y4.0272
 X3.4910 Y4.0359
 X3.4937 Y4.0375
 X3.4954 Y4.0274
 X3.4960 Y4.0072
 X3.4956 Y3.9785
 X3.4961 Y3.9230
 X3.5023 Y3.9028
 X3.5060 Y3.8991
 X3.5006 Y3.8894
 X3.4945 Y3.8773
 X3.4953 Y3.8667
 X3.4963 Y3.8543
 X3.4906 Y3.8376
 X3.4850 Y3.8242
 X3.4902
 X3.4977 Y3.8196
 X3.5003 Y3.7932
 X3.5029 Y3.7669
 X3.5094 Y3.7560
 X3.5159 Y3.7506
 X3.5186 Y3.7376
 X3.5213 Y3.7247
 X3.5278 Y3.7192
 X3.5342 Y3.7247
 X3.5369 Y3.7376
 X3.5396 Y3.7506
 X3.5461 Y3.7560
 X3.5554 Y3.7393
 X3.5585 Y3.6899
 X3.5603 Y3.6800
 X3.5647 Y3.6781
 X3.5710 Y3.6989
 X3.5772 Y3.7433
 X3.5845 Y3.7918
 X3.5930 Y3.8223
 X3.6002 Y3.8466
 X3.6041 Y3.8799
 X3.6062 Y3.9070
 X3.6092 Y3.9161
 X3.6130 Y3.9195
 X3.6208 Y3.9314
 X3.6313 Y3.9501
 X3.6436 Y3.9735
 X3.6552 Y3.9974
 X3.6642 Y4.0176
 X3.6697 Y4.0319
 X3.6709 Y4.0379
 X3.6603 Y4.0281
 X3.6399 Y3.9995
 X3.6264 Y3.9804
 X3.6170 Y3.9700
 X3.6106 Y3.9676
 X3.6066 Y3.9724
 X3.6084 Y3.9896
 X3.6193 Y4.0123
 X3.6342 Y4.0321
 X3.6481 Y4.0405
 X3.6526 Y4.0479
 X3.6540 Y4.0543
 X3.6612 Y4.0663
 X3.6732 Y4.0823
 X3.6886 Y4.1003
 X3.7189 Y4.1369
 X3.7345 Y4.1617
 X3.7407 Y4.1733
 X3.7485 Y4.1782
 X3.7505 Y4.1723
 X3.7424 Y4.1552
 X3.7250 Y4.1284
 X3.6989 Y4.0928
 X3.6818 Y4.0665
 X3.6783 Y4.0518
 X3.6909 Y4.0547
 X3.6984 Y4.0659
 X3.7142 Y4.0894
 X3.7359 Y4.1220
 X3.7613 Y4.1600
 X3.8888 Y4.3184
 X4.0546 Y4.4634
 X4.1500 Y4.5319
 X4.2225 Y4.5708
 X4.2916 Y4.5878
 X4.3768 Y4.5907
 X4.4581 Y4.5852
 X4.5201 Y4.5709
 X4.5592 Y4.5595
 X4.5784 Y4.5576
 X4.5715 Y4.5650
 X4.5502 Y4.5763
 X4.5250 Y4.5867
 X4.5064 Y4.5912
 X4.5030 Y4.5995
 X4.5119 Y4.6037
 X4.5275 Y4.6028
 X4.5451 Y4.5976
 X4.5606 Y4.5889
 X4.5727 Y4.5842
 X4.5858 Y4.5853
 X4.6009 Y4.5834
 X4.6178 Y4.5709
 X4.6294 Y4.5564
 X4.6318 Y4.5484
 X4.6251 Y4.5475
 X4.6097 Y4.5541
 X4.5953 Y4.5594
 X4.5906 Y4.5548
 X4.5999 Y4.5453
 X4.6102 Y4.5427
 X4.6313 Y4.5356
 X4.6602 Y4.5251
 X4.6938 Y4.5122
 X4.7281 Y4.4992
 X4.7593 Y4.4884
 X4.7837 Y4.4809
 X4.7981 Y4.4777
 X4.8106 Y4.4747
 X4.8134 Y4.4692
 X4.8175 Y4.4660
 X4.8339 Y4.4683
 X4.8515 Y4.4707
 X4.8525 Y4.4640
 X4.8535 Y4.4562
 X4.8689 Y4.4535
 X4.8866 Y4.4511
 X4.8970 Y4.4450
 X4.9088 Y4.4373
 X4.9296 Y4.4306
 X4.9489 Y4.4242
 X4.9570 Y4.4173
 X4.9698 Y4.4090
 X5.0005 Y4.3990
 X5.0354 Y4.3890
 X5.0582 Y4.3805
 X5.0796 Y4.3734
 X5.1114 Y4.3665
 X5.1406 Y4.3581
 X5.1556 Y4.3471
 X5.1637 Y4.3380
 X5.1764 Y4.3342
 X5.1883 Y4.3314
 X5.2089 Y4.3238
 X5.2354 Y4.3126
 X5.2648 Y4.2988
 X5.2954 Y4.2840
 X5.3254 Y4.2700
 X5.3511 Y4.2584
 X5.3693 Y4.2506
 X5.3913 Y4.2409
 X5.4275 Y4.2239
 X5.4729 Y4.2019
 X5.5225 Y4.1775
 X5.5788 Y4.1501
 X5.6182 Y4.1331
 X5.6424 Y4.1257
 X5.6537 Y4.1269
 X5.6609 Y4.1307
 Y4.1195
 X5.6625 Y4.1059
 X5.6706 Y4.0976
 X5.6783 Y4.0973
 X5.6761 Y4.1049
 X5.6757 Y4.1128
 X5.6931 Y4.1105
 X5.7108 Y4.1087
 X5.7174 Y4.1139
 X5.7241 Y4.1163
 X5.7403 Y4.1086
 X5.7530 Y4.0975
 X5.7576 Y4.0873
 X5.7540 Y4.0801
 X5.7421 Y4.0774
 X5.7378 Y4.0801
 X5.7449 Y4.0874
 X5.7529 Y4.0945
 X5.7420 Y4.0918
 X5.7254 Y4.0906
 X5.7092 Y4.0951
 X5.6967 Y4.0990
 X5.6930 Y4.0914
 X5.6968 Y4.0839
 X5.7067 Y4.0842
 X5.7154 Y4.0854
 X5.7129 Y4.0774
 X5.7100 Y4.0699
 X5.7158 Y4.0716
 X5.7289 Y4.0731
 X5.7458 Y4.0675
 X5.7598 Y4.0616
 X5.7587 Y4.0680
 X5.7578 Y4.0754
 X5.7690 Y4.0755
 X5.7806 Y4.0686
 X5.7835 Y4.0562
 X5.7863 Y4.0443
 X5.8018 Y4.0406
 X5.8159 Y4.0425
 X5.8090 Y4.0497
 X5.8005 Y4.0570
 X5.8110 Y4.0587
 X5.8222 Y4.0625
 X5.8209 Y4.0720
 X5.8084 Y4.0851
 X5.7859 Y4.0996
 X5.7634 Y4.1138
 X5.7541 Y4.1236
 X5.7443 Y4.1343
 X5.7209 Y4.1501
 X5.6987 Y4.1653
 X5.6921 Y4.1742
 X5.7068 Y4.1711
 X5.7357 Y4.1560
 X5.7694 Y4.1346
 X5.7986 Y4.1120
 X5.8225 Y4.0936
 X5.8430 Y4.0826
 X5.8594 Y4.0719
 X5.8733 Y4.0541
 X5.8842 Y4.0380
 X5.8934 Y4.0313
 X5.9064 Y4.0244
 X5.9263 Y4.0078
 X5.9491 Y3.9883
 X5.9694 Y3.9745
 X5.9780 Y3.9708
 X5.9754 Y3.9768
 X5.9580 Y3.9975
 X5.9219 Y4.0377
 X5.9114 Y4.0462
 X5.9013 Y4.0497
 X5.8944 Y4.0532
 X5.8915 Y4.0615
 X5.8827 Y4.0749
 X5.8617 Y4.0905
 X5.8306 Y4.1110
 X5.7978 Y4.1361
 X5.7525 Y4.1731
 X5.7187 Y4.1989
 X5.6906 Y4.2177
 X5.6625 Y4.2337
 X5.6280 Y4.2535
 X5.6029 Y4.2702
 X5.5597 Y4.2992
 X5.4901 Y4.3394
 X5.4013 Y4.3873
 X5.3006 Y4.4391
 X5.1953 Y4.4912
 X5.0927 Y4.5398
 X5.0002 Y4.5814
 X4.9250 Y4.6122
 X4.8829 Y4.6288
 X4.8333 Y4.6493
 X4.7864 Y4.6676
 X4.7509 Y4.6790
 X4.7280 Y4.6863
 X4.7119 Y4.6946
 X4.6931 Y4.7013
 X4.6644 Y4.7046
 X4.6408 Y4.7075
 X4.6392 Y4.7134
 X4.6424 Y4.7183
 X4.6315 Y4.7173
 X4.6150 Y4.7181
 X4.6014 Y4.7257
 X4.5867 Y4.7344
 X4.5678 Y4.7381
 X4.5506 Y4.7408
 X4.5401 Y4.7472
 X4.5324 Y4.7557
 X4.5265 Y4.7555
 X4.5233 Y4.7477
 X4.5242 Y4.7332
 X4.5316 Y4.7158
 X4.5481 Y4.7157
 X4.5604 Y4.7177
 X4.5447 Y4.7050
 X4.5266 Y4.6906
 X4.5152 Y4.6789
 X4.5117 Y4.6829
 X4.5127 Y4.7059
 X4.5169 Y4.7427
 X4.5081 Y4.7106
 X4.5003 Y4.6758
 X4.4940 Y4.6373
 X4.4892 Y4.6073
 X4.4852 Y4.5928
 X4.4784 Y4.5911
 X4.4717 Y4.5960
 X4.4676 Y4.6042
 X4.4687 Y4.6125
 X4.4755 Y4.6356
 X4.4787 Y4.6685
 X4.4777 Y4.6979
 X4.4721 Y4.7106
 X4.4652 Y4.7153
 X4.4624 Y4.7266
 X4.4641 Y4.7374
 X4.4715 Y4.7289
 X4.4785 Y4.7234
 X4.4805 Y4.7409
 X4.4779 Y4.7578
 X4.4715 Y4.7610
 X4.4645 Y4.7592
 X4.4626 Y4.7636
 X4.4654 Y4.7719
 X4.4729 Y4.7817
 X4.4806 Y4.8062
 X4.4843 Y4.8501
 X4.4810 Y4.9013
 X4.4668 Y4.9350
 X4.4557 Y4.9584
 X4.4491 Y4.9843
 X4.4485 Y5.0036
 X4.4554 Y5.0074
 X4.4602 Y5.0085
 X4.4623 Y5.0170
 X4.4590 Y5.0347
 X4.4513 Y5.0547
 X4.4417 Y5.0710
 X4.4333 Y5.0777
 X4.4262 Y5.0911
 X4.4387 Y5.1257
 X4.4471 Y5.1526
 X4.4488 Y5.1821
 Y5.1998
 X4.4537 Y5.2150
 X4.4655 Y5.2315
 X4.4862 Y5.2530
 X4.5068 Y5.2747
 X4.5190 Y5.2920
 X4.5249 Y5.3089
 X4.5264 Y5.3290
 X4.5221 Y5.3598
 X4.5112 Y5.3822
 X4.5008 Y5.3991
 X4.5124 Y5.4170
 X4.5246 Y5.4415
 X4.5278 Y5.4798
 X4.5283 Y5.5039
 X4.5319 Y5.5213
 X4.5403 Y5.5357
 X4.5549 Y5.5512
 X4.5782 Y5.5787
 X4.5953 Y5.6074
 X4.6106 Y5.6307
 X4.6312 Y5.6429
 X4.6487 Y5.6506
 X4.6651 Y5.6637
 X4.6794 Y5.6806
 X4.6909 Y5.6994
 X4.6986 Y5.7186
 X4.7018 Y5.7365
 X4.6995 Y5.7514
 X4.6911 Y5.7616
 X4.6908 Y5.7737
 X4.7056 Y5.7960
 X4.7229 Y5.8235
 X4.7248 Y5.8486
 X4.7267 Y5.8731
 X4.7469 Y5.8982
 X4.7659 Y5.9188
 X4.7738 Y5.9326
 X4.7826 Y5.9361
 X4.7935 Y5.9392
 X4.8060 Y5.9537
 X4.8150 Y5.9718
 X4.8153 Y5.9858
 X4.8150 Y5.9912
 X4.8238 Y5.9898
 X4.8336 Y5.9890
 X4.8325 Y5.9991
 X4.8317 Y6.0100
 X4.8400 Y6.0139
 X4.8492 Y6.0195
 X4.8524 Y6.0338
 X4.8581 Y6.0510
 X4.8803 Y6.0613
 X4.9038 Y6.0708
 X4.9204 Y6.0827
 X4.9346 Y6.0924
 X4.9530 Y6.0965
 X4.9695 Y6.0989
 X4.9793 Y6.1046
 X4.9907 Y6.1115
 X5.0113 Y6.1167
 X5.0321 Y6.1172
 X5.0296 Y6.1043
 X5.0130 Y6.0897
 X4.9856 Y6.0774
 X4.9642 Y6.0679
 X4.9526 Y6.0558
 X4.9514 Y6.0427
 X4.9616 Y6.0301
 X4.9634 Y6.0253
 X4.9547 Y6.0232
 X4.9394 Y6.0161
 X4.9501 Y5.9970
 X4.9564 Y5.9862
 X4.9478 Y5.9769
 X4.9347 Y5.9720
 X4.9226 Y5.9724
 X4.9146 Y5.9728
 X4.9112 Y5.9677
 X4.9192 Y5.9615
 X4.9387 Y5.9588
 X4.9589 Y5.9622
 X4.9661 Y5.9716
 X4.9706 Y5.9835
 X4.9849 Y5.9902
 X5.0105 Y5.9921
 X5.0489 Y5.9895
 X5.0911 Y5.9876
 X5.1036 Y5.9947
 X5.1154 Y6.0024
 X5.1517 Y6.0029
 X5.1763 Y6.0007
 X5.1923 Y5.9967
 X5.2023 Y5.9900
 X5.2088 Y5.9795
 X5.2191 Y5.9665
 X5.2329 Y5.9594
 X5.2450 Y5.9595
 X5.2502 Y5.9683
 X5.2544 Y5.9733
 X5.2679 Y5.9683
 X5.2872 Y5.9616
 X5.3086 Y5.9588
 X5.3262 Y5.9565
 X5.3365 Y5.9508
 X5.3461 Y5.9449
 X5.3623 Y5.9420
 X5.3945 Y5.9372
 X5.4299 Y5.9278
 X5.4538 Y5.9184
 X5.4518 Y5.9135
 X5.4349 Y5.9106
 X5.4447 Y5.9003
